gugafelds/robotervermessung-rosbag-recorder/scripts/record_20240701_182718_testefinal3_final.csv
timestamp,sec,nanosec,pv_x,pv_y,pv_z,ov_x,ov_y,ov_z,ov_w,tcp_speedv_x,tcp_speedv_y,tcp_speedv_z,tcp_speedv,tcp_angularv_x,tcp_angularv_y,tcp_angularv_z,tcp_angularv,tcp_accelv__x,tcp_accelv__y,tcp_accelv__z,tcp_accelv,tcp_accelv_angular_x,tcp_accelv_angular_y,tcp_accelv_angular_z,tcp_accelv_angular,ps_x,ps_y,ps_z,os_x,os_y,os_z,os_w,tcp_speeds,joint_1,joint_2,joint_3,joint_4,joint_5,joint_6,ap_x,ap_y,ap_z
1719851564823342387,,,,,,,,,,,,,,,,,,,,,,,,,,369.998,-1130.01,1730.01,,,,,,,,,,,,,,
1719851564825115717,,,,,,,,,,,,,,,,,,,,,,,,,,,,,,,,,0.0,,,,,,,,,
1719851564828118984,,,,,,,,,,,,,,,,,,,,,,,,,,369.997,-1130.02,1730.01,,,,,,,,,,,,,,
1719851564829074389,,,,,,,,,,,,,,,,,,,,,,,,,,369.997,-1130.02,1730.01,,,,,,,,,,,,,,
1719851564830575503,,,,,,,,,,,,,,,,,,,,,,,,,,,,,,,,,0.0,,,,,,,,,
1719851564830598238,,,,,,,,,,,,,,,,,,,,,,,,,,369.995,-1130.01,1730.02,,,,,,,,,,,,,,
1719851564832517423,,,,,,,,,,,,,,,,,,,,,,,,,,369.995,-1130.01,1730.02,,,,,,,,,,,,,,
1719851564832586251,,,,,,,,,,,,,,,,,,,,,,,,,,,,,,,,,0.0,,,,,,,,,
1719851564835010311,,,,,,,,,,,,,,,,,,,,,,,,,,,,,0.06423,0.607569,0.386598,0.690852,,,,,,,,,,
1719851564835040241,,,,,,,,,,,,,,,,,,,,,,,,,,369.996,-1130.01,1730.02,,,,,,,,,,,,,,
1719851564835082604,,,,,,,,,,,,,,,,,,,,,,,,,,,,,,,,,0.0,,,,,,,,,
1719851564835649194,,,,,,,,,,,,,,,,,,,,,,,,,,,,,,,,,,-78.3793,9.30279,-1.75829,88.2768,105.586,53.4513,,,
1719851564836879806,,,,,,,,,,,,,,,,,,,,,,,,,,369.996,-1130.01,1730.02,,,,,,,,,,,,,,
1719851564837170522,,,,,,,,,,,,,,,,,,,,,,,,,,,,,,,,,,-78.3793,9.30279,-1.75829,88.2768,105.586,53.4513,,,
1719851564839061385,,,,,,,,,,,,,,,,,,,,,,,,,,,,,0.0642291,0.607571,0.386597,0.690851,,,,,,,,,,
1719851564839082873,,,,,,,,,,,,,,,,,,,,,,,,,,369.994,-1130.01,1730.02,,,,,,,,,,,,,,
1719851564839954467,,,,,,,,,,,,,,,,,,,,,,,,,,,,,0.0642291,0.607571,0.386597,0.690851,,,,,,,,,,
1719851564839978743,,,,,,,,,,,,,,,,,,,,,,,,,,,,,,,,,0.0,,,,,,,,,
1719851564839990226,,,,,,,,,,,,,,,,,,,,,,,,,,369.994,-1130.01,1730.02,,,,,,,,,,,,,,
1719851564840227095,,,,,,,,,,,,,,,,,,,,,,,,,,,,,,,,,,-78.3794,9.3027,-1.75829,88.2765,105.586,53.4514,,,
1719851564841354344,,,,,,,,,,,,,,,,,,,,,,,,,,,,,0.0642291,0.607571,0.386597,0.690851,,,,,,,,,,
1719851564841371129,,,,,,,,,,,,,,,,,,,,,,,,,,,,,,,,,0.0,,,,,,,,,
1719851564841380294,,,,,,,,,,,,,,,,,,,,,,,,,,369.994,-1130.01,1730.02,,,,,,,,,,,,,,
1719851564841578855,,,,,,,,,,,,,,,,,,,,,,,,,,,,,,,,,,-78.3794,9.3027,-1.75829,88.2765,105.586,53.4514,,,
1719851564843859400,,,,,,,,,,,,,,,,,,,,,,,,,,369.995,-1130.01,1730.02,,,,,,,,,,,,,,
1719851564845794164,,,,,,,,,,,,,,,,,,,,,,,,,,,,,0.0642322,0.607571,0.386595,0.690852,,,,,,,,,,
1719851564845833760,,,,,,,,,,,,,,,,,,,,,,,,,,,,,,,,,0.0,,,,,,,,,
1719851564848869231,,,,,,,,,,,,,,,,,,,,,,,,,,369.997,-1130.01,1730.02,,,,,,,,,,,,,,
1719851564848928791,,,,,,,,,,,,,,,,,,,,,,,,,,,,,,,,,0.0,,,,,,,,,
1719851565823143292,,,,,,,,,,,,,,,,,,,,,,,,,,369.999,-1130.02,1730.02,,,,,,,,,,,,,,
1719851565824504193,,,,,,,,,,,,,,,,,,,,,,,,,,369.999,-1130.02,1730.02,,,,,,,,,,,,,,
1719851565825320116,,,,,,,,,,,,,,,,,,,,,,,,,,369.999,-1130.02,1730.02,,,,,,,,,,,,,,
1719851565827682214,,,,,,,,,,,,,,,,,,,,,,,,,,369.995,-1130.02,1730.02,,,,,,,,,,,,,,
1719851565827755993,,,,,,,,,,,,,,,,,,,,,,,,,,,,,,,,,,-78.3794,9.30287,-1.75821,88.2768,105.585,53.4513,,,
1719851565830273245,,,,,,,,,,,,,,,,,,,,,,,,,,369.995,-1130.02,1730.02,,,,,,,,,,,,,,
1719851565830576180,,,,,,,,,,,,,,,,,,,,,,,,,,,,,,,,,,-78.3794,9.30287,-1.75821,88.2768,105.585,53.4513,,,
1719851565832979236,,,,,,,,,,,,,,,,,,,,,,,,,,369.995,-1130.02,1730.02,,,,,,,,,,,,,,
1719851565833328476,,,,,,,,,,,,,,,,,,,,,,,,,,,,,,,,,,-78.3794,9.30279,-1.75816,88.2768,105.585,53.4511,,,
1719851565834299577,,,,,,,,,,,,,,,,,,,,,,,,,,369.997,-1130.01,1730.02,,,,,,,,,,,,,,
1719851565834655311,,,,,,,,,,,,,,,,,,,,,,,,,,,,,,,,,,-78.3793,9.30279,-1.75829,88.2768,105.585,53.4512,,,
1719851565835400138,,,,,,,,,,,,,,,,,,,,,,,,,,369.997,-1130.01,1730.02,,,,,,,,,,,,,,
1719851565835760967,,,,,,,,,,,,,,,,,,,,,,,,,,,,,,,,,,-78.3793,9.30279,-1.75829,88.2768,105.585,53.4512,,,
1719851565838102044,,,,,,,,,,,,,,,,,,,,,,,,,,369.997,-1130.01,1730.02,,,,,,,,,,,,,,
1719851565838324302,,,,,,,,,,,,,,,,,,,,,,,,,,,,,,,,,,-78.3793,9.30279,-1.75829,88.2768,105.585,53.4512,,,
1719851565842224501,,,,,,,,,,,,,,,,,,,,,,,,,,369.997,-1130.02,1730.01,,,,,,,,,,,,,,
1719851565842306136,,,,,,,,,,,,,,,,,,,,,,,,,,,,,0.0642324,0.607573,0.386595,0.69085,,,,,,,,,,
1719851565844515042,,,,,,,,,,,,,,,,,,,,,,,,,,369.995,-1130.01,1730.02,,,,,,,,,,,,,,
1719851565844680274,,,,,,,,,,,,,,,,,,,,,,,,,,,,,0.0642324,0.607569,0.386594,0.690853,,,,,,,,,,
1719851565845087265,,,,,,,,,,,,,,,,,,,,,,,,,,,,,,,,,,-78.3794,9.3027,-1.75821,88.277,105.585,53.4513,,,
1719851565846309975,,,,,,,,,,,,,,,,,,,,,,,,,,369.998,-1130.01,1730.02,,,,,,,,,,,,,,
1719851565846380651,,,,,,,,,,,,,,,,,,,,,,,,,,,,,0.0642328,0.607572,0.386596,0.69085,,,,,,,,,,
1719851565847726513,,,,,,,,,,,,,,,,,,,,,,,,,,,,,0.0642328,0.607572,0.386596,0.69085,,,,,,,,,,
1719851565847745279,,,,,,,,,,,,,,,,,,,,,,,,,,369.998,-1130.01,1730.02,,,,,,,,,,,,,,
1719851565848050130,,,,,,,,,,,,,,,,,,,,,,,,,,,,,,,,,,-78.3792,9.30266,-1.75821,88.2765,105.585,53.4512,,,
1719851565848895566,,,,,,,,,,,,,,,,,,,,,,,,,,369.998,-1130.01,1730.02,,,,,,,,,,,,,,
1719851565849044023,,,,,,,,,,,,,,,,,,,,,,,,,,,,,0.0642328,0.607572,0.386596,0.69085,,,,,,,,,,
1719851566835418837,,,,,,,,,,,,,,,,,,,,,,,,,,369.994,-1130.02,1730.01,,,,,,,,,,,,,,
1719851566836724915,,,,,,,,,,,,,,,,,,,,,,,,,,,,,0.0642314,0.607572,0.386595,0.690851,,,,,,,,,,
1719851566836773456,,,,,,,,,,,,,,,,,,,,,,,,,,369.994,-1130.02,1730.01,,,,,,,,,,,,,,
1719851566838402136,,,,,,,,,,,,,,,,,,,,,,,,,,369.994,-1130.02,1730.01,,,,,,,,,,,,,,
1719851566839261407,,,,,,,,,,,,,,,,,,,,,,,,,,369.996,-1130.01,1730.02,,,,,,,,,,,,,,
1719851566839474586,,,,,,,,,,,,,,,,,,,,,,,,,,,,,,,,,,-78.3793,9.3027,-1.75821,88.2768,105.585,53.4513,,,
1719851566841510229,,,,,,,,,,,,,,,,,,,,,,,,,,369.996,-1130.01,1730.02,,,,,,,,,,,,,,
1719851566841583324,,,,,,,,,,,,,,,,,,,,,,,,,,,,,,,,,,-78.3793,9.3027,-1.75821,88.2768,105.585,53.4513,,,
1719851566843649709,,,,,,,,,,,,,,,,,,,,,,,,,,369.999,-1130.02,1730.02,,,,,,,,,,,,,,
1719851566843928970,,,,,,,,,,,,,,,,,,,,,,,,,,,,,,,,,,-78.3792,9.30287,-1.75829,88.277,105.585,53.4513,,,
1719851566845838416,,,,,,,,,,,,,,,,,,,,,,,,,,369.999,-1130.02,1730.02,,,,,,,,,,,,,,
1719851566846200993,,,,,,,,,,,,,,,,,,,,,,,,,,,,,,,,,,-78.3792,9.30287,-1.75829,88.277,105.585,53.4513,,,
1719851566847818718,,,,,,,,,,,,,,,,,,,,,,,,,,369.998,-1130.01,1730.02,,,,,,,,,,,,,,
1719851566848188511,,,,,,,,,,,,,,,,,,,,,,,,,,,,,,,,,,-78.3792,9.3027,-1.75821,88.2768,105.585,53.4511,,,
1719851566848862262,,,,,,,,,,,,,,,,,,,,,,,,,,369.998,-1130.01,1730.02,,,,,,,,,,,,,,
1719851566848930823,,,,,,,,,,,,,,,,,,,,,,,,,,,,,0.0642322,0.607569,0.386597,0.690852,,,,,,,,,,
1719851566850236249,,,,,,,,,,,,,,,,,,,,,,,,,,369.999,-1130.02,1730.02,,,,,,,,,,,,,,
1719851566850522674,,,,,,,,,,,,,,,,,,,,,,,,,,,,,,,,,,-78.3792,9.30287,-1.75829,88.2768,105.585,53.4513,,,
1719851566852587960,,,,,,,,,,,,,,,,,,,,,,,,,,369.999,-1130.02,1730.02,,,,,,,,,,,,,,
1719851566853914529,,,,,,,,,,,,,,,,,,,,,,,,,,,,,,,,,0.0,,,,,,,,,
1719851566856805400,,,,,,,,,,,,,,,,,,,,,,,,,,369.995,-1130.01,1730.02,,,,,,,,,,,,,,
1719851566856995381,,,,,,,,,,,,,,,,,,,,,,,,,,,,,,,,,,-78.3794,9.30266,-1.75821,88.2765,105.585,53.4512,,,
1719851567824745566,,,,,,,,,,,,,,,,,,,,,,,,,,369.999,-1130.01,1730.02,,,,,,,,,,,,,,
1719851567826538308,,,,,,,,,,,,,,,,,,,,,,,,,,369.995,-1130.01,1730.02,,,,,,,,,,,,,,
1719851567827235936,,,,,,,,,,,,,,,,,,,,,,,,,,,,,0.0642322,0.607573,0.386596,0.690849,,,,,,,,,,
1719851567828171722,,,,,,,,,,,,,,,,,,,,,,,,,,369.995,-1130.01,1730.02,,,,,,,,,,,,,,
1719851567828502953,,,,,,,,,,,,,,,,,,,,,,,,,,,,,,,,,,-78.3794,9.3027,-1.75829,88.2763,105.585,53.4513,,,
1719851567829657331,,,,,,,,,,,,,,,,,,,,,,,,,,369.995,-1130.01,1730.02,,,,,,,,,,,,,,
1719851567829725799,,,,,,,,,,,,,,,,,,,,,,,,,,,,,,,,,,-78.3794,9.3027,-1.75829,88.2763,105.585,53.4513,,,
1719851567830782197,,,,,,,,,,,,,,,,,,,,,,,,,,369.997,-1130.02,1730.02,,,,,,,,,,,,,,
1719851567833068736,,,,,,,,,,,,,,,,,,,,,,,,,,,,,0.0642325,0.60757,0.386596,0.690852,,,,,,,,,,
1719851567833449208,,,,,,,,,,,,,,,,,,,,,,,,,,,,,,,,,,-78.3793,9.30287,-1.75816,88.2768,105.585,53.4511,,,
1719851567835647065,,,,,,,,,,,,,,,,,,,,,,,,,,369.995,-1130.01,1730.02,,,,,,,,,,,,,,
1719851567836042427,,,,,,,,,,,,,,,,,,,,,,,,,,,,,,,,,,-78.3794,9.3027,-1.75829,88.277,105.585,53.4511,,,
1719851567839126815,,,,,,,,,,,,,,,,,,,,,,,,,,369.996,-1130.01,1730.02,,,,,,,,,,,,,,
1719851567839416729,,,,,,,,,,,,,,,,,,,,,,,,,,,,,,,,,,-78.3794,9.3027,-1.75829,88.277,105.585,53.4511,,,
1719851567841888268,,,,,,,,,,,,,,,,,,,,,,,,,,369.996,-1130.01,1730.02,,,,,,,,,,,,,,
1719851567842099124,,,,,,,,,,,,,,,,,,,,,,,,,,,,,,,,,,-78.3793,9.3027,-1.75829,88.2765,105.585,53.4511,,,
1719851567842973697,,,,,,,,,,,,,,,,,,,,,,,,,,369.998,-1130.01,1730.02,,,,,,,,,,,,,,
1719851567843170190,,,,,,,,,,,,,,,,,,,,,,,,,,,,,,,,,,-78.3792,9.30279,-1.75821,88.2768,105.585,53.4516,,,
1719851567843949095,,,,,,,,,,,,,,,,,,,,,,,,,,,,,,,,,0.0,,,,,,,,,
1719851567843967759,,,,,,,,,,,,,,,,,,,,,,,,,,369.998,-1130.01,1730.02,,,,,,,,,,,,,,
1719851567846526127,,,,,,,,,,,,,,,,,,,,,,,,,,369.995,-1130.01,1730.02,,,,,,,,,,,,,,
1719851567847059409,,,,,,,,,,,,,,,,,,,,,,,,,,,,,,,,,,-78.3794,9.30279,-1.75829,88.2765,105.585,53.4512,,,
1719851568822480639,,,,,,,,,,,,,,,,,,,,,,,,,,369.996,-1130.01,1730.02,,,,,,,,,,,,,,
1719851568823924916,,,,,,,,,,,,,,,,,,,,,,,,,,369.995,-1130.01,1730.02,,,,,,,,,,,,,,
1719851568824034209,,,,,,,,,,,,,,,,,,,,,,,,,,,,,0.0642343,0.60757,0.386597,0.690852,,,,,,,,,,
1719851568824060336,,,,,,,,,,,,,,,,,,,,,,,,,,369.995,-1130.01,1730.02,,,,,,,,,,,,,,
1719851568826145252,,,,,,,,,,,,,,,,,,,,,,,,,,,,,0.0642343,0.60757,0.386597,0.690852,,,,,,,,,,
1719851568826185696,,,,,,,,,,,,,,,,,,,,,,,,,,369.995,-1130.01,1730.02,,,,,,,,,,,,,,
1719851568828102387,,,,,,,,,,,,,,,,,,,,,,,,,,,,,,,,,0.0,,,,,,,,,
1719851568828152788,,,,,,,,,,,,,,,,,,,,,,,,,,369.995,-1130.01,1730.02,,,,,,,,,,,,,,
1719851568830659189,,,,,,,,,,,,,,,,,,,,,,,,,,369.995,-1130.01,1730.02,,,,,,,,,,,,,,
1719851568831873020,,,,,,,,,,,,,,,,,,,,,,,,,,,,,0.0642335,0.607569,0.386595,0.690853,,,,,,,,,,
1719851568832460887,,,,,,,,,,,,,,,,,,,,,,,,,,,,,0.0642335,0.607569,0.386595,0.690853,,,,,,,,,,
1719851568832489879,,,,,,,,,,,,,,,,,,,,,,,,,,,,,,,,,0.0,,,,,,,,,
1719851568832507493,,,,,,,,,,,,,,,,,,,,,,,,,,369.995,-1130.01,1730.02,,,,,,,,,,,,,,
1719851568832926078,,,,,,,,,,,,,,,,,,,,,,,,,,,,,,,,,,-78.3794,9.3027,-1.75821,88.277,105.585,53.4511,,,
1719851568833926917,,,,,,,,,,,,,,,,,,,,,,,,,,,,,0.0642322,0.607571,0.386595,0.690852,,,,,,,,,,
1719851568833951149,,,,,,,,,,,,,,,,,,,,,,,,,,,,,,,,,0.0,,,,,,,,,
1719851568833965854,,,,,,,,,,,,,,,,,,,,,,,,,,369.995,-1130.02,1730.02,,,,,,,,,,,,,,
1719851568834268837,,,,,,,,,,,,,,,,,,,,,,,,,,,,,,,,,,-78.3794,9.30279,-1.75821,88.2768,105.585,53.4513,,,
1719851568834991638,,,,,,,,,,,,,,,,,,,,,,,,,,,,,0.0642322,0.607571,0.386595,0.690852,,,,,,,,,,
1719851568835014526,,,,,,,,,,,,,,,,,,,,,,,,,,,,,,,,,0.0,,,,,,,,,
1719851568835027527,,,,,,,,,,,,,,,,,,,,,,,,,,369.995,-1130.02,1730.02,,,,,,,,,,,,,,
1719851568835250848,,,,,,,,,,,,,,,,,,,,,,,,,,,,,,,,,,-78.3794,9.30279,-1.75821,88.2768,105.585,53.4513,,,
1719851568837164356,,,,,,,,,,,,,,,,,,,,,,,,,,,,,0.0642322,0.607571,0.386595,0.690852,,,,,,,,,,
1719851568837184280,,,,,,,,,,,,,,,,,,,,,,,,,,369.995,-1130.02,1730.02,,,,,,,,,,,,,,
1719851568837472108,,,,,,,,,,,,,,,,,,,,,,,,,,,,,,,,,,-78.3794,9.30279,-1.75821,88.2768,105.585,53.4513,,,
1719851568840141869,,,,,,,,,,,,,,,,,,,,,,,,,,369.995,-1130.01,1730.02,,,,,,,,,,,,,,
1719851568840439735,,,,,,,,,,,,,,,,,,,,,,,,,,,,,0.0642333,0.60757,0.386596,0.690852,,,,,,,,,,
1719851568840457259,,,,,,,,,,,,,,,,,,,,,,,,,,,,,,,,,0.0,,,,,,,,,
1719851568840668018,,,,,,,,,,,,,,,,,,,,,,,,,,,,,,,,,,-78.3794,9.3027,-1.75821,88.2768,105.585,53.4511,,,
1719851568843084951,,,,,,,,,,,,,,,,,,,,,,,,,,,,,0.0642333,0.60757,0.386596,0.690852,,,,,,,,,,
1719851568843103394,,,,,,,,,,,,,,,,,,,,,,,,,,,,,,,,,0.0,,,,,,,,,
1719851568843112920,,,,,,,,,,,,,,,,,,,,,,,,,,369.995,-1130.02,1730.02,,,,,,,,,,,,,,
1719851568843286056,,,,,,,,,,,,,,,,,,,,,,,,,,,,,,,,,,-78.3794,9.30291,-1.75821,88.2768,105.585,53.4511,,,
1719851568844188506,,,,,,,,,,,,,,,,,,,,,,,,,,,,,0.0642333,0.60757,0.386596,0.690852,,,,,,,,,,
1719851568844207841,,,,,,,,,,,,,,,,,,,,,,,,,,369.995,-1130.02,1730.02,,,,,,,,,,,,,,
1719851568844284669,,,,,,,,,,,,,,,,,,,,,,,,,,,,,,,,,,-78.3794,9.30291,-1.75821,88.2768,105.585,53.4511,,,
1719851568845546885,,,,,,,,,,,,,,,,,,,,,,,,,,,,,0.0642309,0.60757,0.386595,0.690852,,,,,,,,,,
1719851568845553674,,,,,,,,,,,,,,,,,,,,,,,,,,,,,,,,,0.0,,,,,,,,,
1719851568845558750,,,,,,,,,,,,,,,,,,,,,,,,,,369.995,-1130.02,1730.02,,,,,,,,,,,,,,
1719851568845702526,,,,,,,,,,,,,,,,,,,,,,,,,,,,,,,,,,-78.3794,9.30291,-1.75821,88.2768,105.585,53.4511,,,
1719851568848301226,,,,,,,,,,,,,,,,,,,,,,,,,,,,,0.0642309,0.60757,0.386595,0.690852,,,,,,,,,,
1719851568848317919,,,,,,,,,,,,,,,,,,,,,,,,,,,,,,,,,0.0,,,,,,,,,
1719851568848322580,,,,,,,,,,,,,,,,,,,,,,,,,,369.995,-1130.01,1730.02,,,,,,,,,,,,,,
1719851568848449351,,,,,,,,,,,,,,,,,,,,,,,,,,,,,,,,,,-78.3794,9.3027,-1.75821,88.2768,105.585,53.4514,,,
1719851569835280733,,,,,,,,,,,,,,,,,,,,,,,,,,369.996,-1130.02,1730.02,,,,,,,,,,,,,,
1719851569836641706,,,,,,,,,,,,,,,,,,,,,,,,,,369.996,-1130.02,1730.02,,,,,,,,,,,,,,
1719851569837210689,,,,,,,,,,,,,,,,,,,,,,,,,,369.996,-1130.02,1730.02,,,,,,,,,,,,,,
1719851569837655156,,,,,,,,,,,,,,,,,,,,,,,,,,,,,,,,,0.0,,,,,,,,,
1719851569839495752,,,,,,,,,,,,,,,,,,,,,,,,,,369.999,-1130.02,1730.02,,,,,,,,,,,,,,
1719851569839959247,,,,,,,,,,,,,,,,,,,,,,,,,,,,,0.0642306,0.607572,0.386596,0.690851,,,,,,,,,,
1719851569842583561,,,,,,,,,,,,,,,,,,,,,,,,,,369.993,-1130.02,1730.02,,,,,,,,,,,,,,
1719851569843755562,,,,,,,,,,,,,,,,,,,,,,,,,,,,,,,,,0.0,,,,,,,,,
1719851569846361668,,,,,,,,,,,,,,,,,,,,,,,,,,369.995,-1130.02,1730.02,,,,,,,,,,,,,,
1719851569847299595,,,,,,,,,,,,,,,,,,,,,,,,,,369.995,-1130.02,1730.02,,,,,,,,,,,,,,
1719851569847668873,,,,,,,,,,,,,,,,,,,,,,,,,,,,,,,,,,-78.3794,9.30279,-1.75821,88.2768,105.585,53.4511,,,
1719851569848241714,,,,,,,,,,,,,,,,,,,,,,,,,,369.995,-1130.02,1730.02,,,,,,,,,,,,,,
1719851569848613290,,,,,,,,,,,,,,,,,,,,,,,,,,,,,,,,,,-78.3794,9.30279,-1.75821,88.2768,105.585,53.4511,,,
1719851569850679879,,,,,,,,,,,,,,,,,,,,,,,,,,369.995,-1130.02,1730.02,,,,,,,,,,,,,,
1719851569850909593,,,,,,,,,,,,,,,,,,,,,,,,,,,,,,,,,,-78.3794,9.30279,-1.75821,88.2768,105.585,53.4511,,,
1719851569853356443,,,,,,,,,,,,,,,,,,,,,,,,,,369.997,-1130.01,1730.02,,,,,,,,,,,,,,
1719851569854306335,,,,,,,,,,,,,,,,,,,,,,,,,,,,,,,,,0.0,,,,,,,,,
1719851569855949861,,,,,,,,,,,,,,,,,,,,,,,,,,369.997,-1130.01,1730.02,,,,,,,,,,,,,,
1719851569856085576,,,,,,,,,,,,,,,,,,,,,,,,,,,,,,,,,,-78.3793,9.30279,-1.75829,88.2768,105.585,53.4511,,,
1719851569858268702,,,,,,,,,,,,,,,,,,,,,,,,,,369.997,-1130.02,1730.01,,,,,,,,,,,,,,
1719851569859273048,,,,,,,,,,,,,,,,,,,,,,,,,,369.997,-1130.02,1730.01,,,,,,,,,,,,,,
1719851569859582977,,,,,,,,,,,,,,,,,,,,,,,,,,,,,0.064231,0.607573,0.386596,0.69085,,,,,,,,,,
1719851569859649939,,,,,,,,,,,,,,,,,,,,,,,,,,,,,,,,,0.0,,,,,,,,,
1719851569860853819,,,,,,,,,,,,,,,,,,,,,,,,,,369.997,-1130.02,1730.01,,,,,,,,,,,,,,
1719851569861409988,,,,,,,,,,,,,,,,,,,,,,,,,,,,,,,,,0.0,,,,,,,,,
1719851570821866821,,,,,,,,,,,,,,,,,,,,,,,,,,,,,,,,,,-78.3793,9.30279,-1.75816,88.2763,105.585,53.4513,,,
1719851570823081614,,,,,,,,,,,,,,,,,,,,,,,,,,369.995,-1130.01,1730.02,,,,,,,,,,,,,,
1719851570823132420,,,,,,,,,,,,,,,,,,,,,,,,,,369.995,-1130.01,1730.02,,,,,,,,,,,,,,
1719851570824340600,,,,,,,,,,,,,,,,,,,,,,,,,,369.995,-1130.01,1730.02,,,,,,,,,,,,,,
1719851570826570666,,,,,,,,,,,,,,,,,,,,,,,,,,369.996,-1130.01,1730.01,,,,,,,,,,,,,,
1719851570829778674,,,,,,,,,,,,,,,,,,,,,,,,,,369.996,-1130.01,1730.01,,,,,,,,,,,,,,
1719851570832215070,,,,,,,,,,,,,,,,,,,,,,,,,,369.998,-1130.01,1730.02,,,,,,,,,,,,,,
1719851570833728546,,,,,,,,,,,,,,,,,,,,,,,,,,369.998,-1130.01,1730.02,,,,,,,,,,,,,,
1719851570834814590,,,,,,,,,,,,,,,,,,,,,,,,,,369.996,-1130.01,1730.02,,,,,,,,,,,,,,
1719851570837463247,,,,,,,,,,,,,,,,,,,,,,,,,,369.996,-1130.01,1730.02,,,,,,,,,,,,,,
1719851570839726621,,,,,,,,,,,,,,,,,,,,,,,,,,369.995,-1130.02,1730.02,,,,,,,,,,,,,,
1719851570842129243,,,,,,,,,,,,,,,,,,,,,,,,,,369.997,-1130.01,1730.02,,,,,,,,,,,,,,
1719851570842225604,,,,,,,,,,,,,,,,,,,,,,,,,,,,,0.0642324,0.607571,0.386594,0.690852,,,,,,,,,,
1719851570843359216,,,,,,,,,,,,,,,,,,,,,,,,,,369.997,-1130.01,1730.02,,,,,,,,,,,,,,
1719851570844212044,,,,,,,,,,,,,,,,,,,,,,,,,,369.997,-1130.01,1730.02,,,,,,,,,,,,,,
1719851570845608812,,,,,,,,,,,,,,,,,,,,,,,,,,369.997,-1130.02,1730.02,,,,,,,,,,,,,,
1719851570847673728,,,,,,,,,,,,,,,,,,,,,,,,,,,,,,,,,,-78.3793,9.30279,-1.75829,88.2768,105.585,53.4515,,,
1719851571821724537,,,,,,,,,,,,,,,,,,,,,,,,,,369.997,-1130.02,1730.02,,,,,,,,,,,,,,
1719851571823262361,,,,,,,,,,,,,,,,,,,,,,,,,,369.996,-1130.02,1730.02,,,,,,,,,,,,,,
1719851571823315413,,,,,,,,,,,,,,,,,,,,,,,,,,,,,,,,,0.0,,,,,,,,,
1719851571824171741,,,,,,,,,,,,,,,,,,,,,,,,,,,,,0.0642357,0.60757,0.386596,0.690852,,,,,,,,,,
1719851571824198680,,,,,,,,,,,,,,,,,,,,,,,,,,369.996,-1130.02,1730.02,,,,,,,,,,,,,,
1719851571825567604,,,,,,,,,,,,,,,,,,,,,,,,,,369.996,-1130.02,1730.02,,,,,,,,,,,,,,
1719851571825829812,,,,,,,,,,,,,,,,,,,,,,,,,,,,,,,,,,-78.3794,9.30291,-1.75829,88.2768,105.585,53.451,,,
1719851571826890853,,,,,,,,,,,,,,,,,,,,,,,,,,369.997,-1130.01,1730.02,,,,,,,,,,,,,,
1719851571827158178,,,,,,,,,,,,,,,,,,,,,,,,,,,,,0.0642311,0.607572,0.386595,0.690851,,,,,,,,,,
1719851571827181125,,,,,,,,,,,,,,,,,,,,,,,,,,,,,,,,,0.0,,,,,,,,,
1719851571828362099,,,,,,,,,,,,,,,,,,,,,,,,,,,,,,,,,0.0,,,,,,,,,
1719851571828386959,,,,,,,,,,,,,,,,,,,,,,,,,,369.997,-1130.01,1730.02,,,,,,,,,,,,,,
1719851571828550498,,,,,,,,,,,,,,,,,,,,,,,,,,,,,,,,,,-78.3793,9.30279,-1.75816,88.2765,105.585,53.4513,,,
1719851571830326302,,,,,,,,,,,,,,,,,,,,,,,,,,,,,,,,,,-78.3793,9.30287,-1.75821,88.277,105.585,53.4514,,,
1719851571830359823,,,,,,,,,,,,,,,,,,,,,,,,,,,,,0.0642306,0.607569,0.386595,0.690853,,,,,,,,,,
1719851571830367165,,,,,,,,,,,,,,,,,,,,,,,,,,369.997,-1130.02,1730.02,,,,,,,,,,,,,,
1719851571831531679,,,,,,,,,,,,,,,,,,,,,,,,,,,,,0.0642306,0.607569,0.386595,0.690853,,,,,,,,,,
1719851571831562125,,,,,,,,,,,,,,,,,,,,,,,,,,369.997,-1130.02,1730.02,,,,,,,,,,,,,,
1719851571831720395,,,,,,,,,,,,,,,,,,,,,,,,,,,,,,,,,,-78.3793,9.30287,-1.75821,88.277,105.585,53.4514,,,
1719851571832940862,,,,,,,,,,,,,,,,,,,,,,,,,,,,,0.0642306,0.607569,0.386595,0.690853,,,,,,,,,,
1719851571832966543,,,,,,,,,,,,,,,,,,,,,,,,,,369.997,-1130.02,1730.02,,,,,,,,,,,,,,
1719851571833118481,,,,,,,,,,,,,,,,,,,,,,,,,,,,,,,,,0.0,,,,,,,,,
1719851571833366003,,,,,,,,,,,,,,,,,,,,,,,,,,,,,,,,,,-78.3793,9.30287,-1.75821,88.277,105.585,53.4514,,,
1719851571834456628,,,,,,,,,,,,,,,,,,,,,,,,,,,,,0.0642317,0.607573,0.386596,0.690849,,,,,,,,,,
1719851571834489534,,,,,,,,,,,,,,,,,,,,,,,,,,369.995,-1130.01,1730.02,,,,,,,,,,,,,,
1719851571834575245,,,,,,,,,,,,,,,,,,,,,,,,,,,,,,,,,,-78.3794,9.3027,-1.75821,88.2763,105.585,53.4513,,,
1719851571835573733,,,,,,,,,,,,,,,,,,,,,,,,,,369.995,-1130.01,1730.02,,,,,,,,,,,,,,
1719851571835600952,,,,,,,,,,,,,,,,,,,,,,,,,,,,,0.0642317,0.607573,0.386596,0.690849,,,,,,,,,,
1719851571835840856,,,,,,,,,,,,,,,,,,,,,,,,,,,,,,,,,,-78.3794,9.3027,-1.75821,88.2763,105.585,53.4513,,,
1719851571838655884,,,,,,,,,,,,,,,,,,,,,,,,,,369.997,-1130.01,1730.02,,,,,,,,,,,,,,
1719851571838674578,,,,,,,,,,,,,,,,,,,,,,,,,,,,,0.0642346,0.60757,0.386599,0.69085,,,,,,,,,,
1719851571839045922,,,,,,,,,,,,,,,,,,,,,,,,,,,,,,,,,,-78.3793,9.30279,-1.75829,88.2765,105.585,53.4508,,,
1719851571840329862,,,,,,,,,,,,,,,,,,,,,,,,,,369.997,-1130.01,1730.02,,,,,,,,,,,,,,
1719851571840345864,,,,,,,,,,,,,,,,,,,,,,,,,,,,,0.0642346,0.60757,0.386599,0.69085,,,,,,,,,,
1719851571840617510,,,,,,,,,,,,,,,,,,,,,,,,,,,,,,,,,0.0,,,,,,,,,
1719851571840894560,,,,,,,,,,,,,,,,,,,,,,,,,,,,,,,,,,-78.3793,9.30279,-1.75829,88.2765,105.585,53.4508,,,
1719851571841987204,,,,,,,,,,,,,,,,,,,,,,,,,,369.995,-1130.02,1730.02,,,,,,,,,,,,,,
1719851571842009824,,,,,,,,,,,,,,,,,,,,,,,,,,,,,0.0642361,0.607572,0.386595,0.69085,,,,,,,,,,
1719851571842940097,,,,,,,,,,,,,,,,,,,,,,,,,,369.995,-1130.02,1730.02,,,,,,,,,,,,,,
1719851571842968773,,,,,,,,,,,,,,,,,,,,,,,,,,,,,0.0642361,0.607572,0.386595,0.69085,,,,,,,,,,
1719851571842973255,,,,,,,,,,,,,,,,,,,,,,,,,,,,,,,,,0.0,,,,,,,,,
1719851571843157625,,,,,,,,,,,,,,,,,,,,,,,,,,,,,,,,,,-78.3794,9.30279,-1.75821,88.2765,105.585,53.4509,,,
1719851571845165225,,,,,,,,,,,,,,,,,,,,,,,,,,,,,0.0642361,0.607572,0.386595,0.69085,,,,,,,,,,
1719851571845167404,,,,,,,,,,,,,,,,,,,,,,,,,,,,,,,,,0.0,,,,,,,,,
1719851571845168887,,,,,,,,,,,,,,,,,,,,,,,,,,369.995,-1130.02,1730.02,,,,,,,,,,,,,,
1719851571845207408,,,,,,,,,,,,,,,,,,,,,,,,,,,,,,,,,,-78.3794,9.30279,-1.75821,88.2765,105.585,53.4509,,,
1719851571847693218,,,,,,,,,,,,,,,,,,,,,,,,,,369.996,-1130.02,1730.01,,,,,,,,,,,,,,
1719851571847701077,,,,,,,,,,,,,,,,,,,,,,,,,,,,,0.0642323,0.607572,0.386595,0.690851,,,,,,,,,,
1719851572822081437,,,,,,,,,,,,,,,,,,,,,,,,,,,,,,,,,0.0,,,,,,,,,
1719851572824095897,,,,,,,,,,,,,,,,,,,,,,,,,,369.995,-1130.01,1730.02,,,,,,,,,,,,,,
1719851572827867593,,,,,,,,,,,,,,,,,,,,,,,,,,369.996,-1130.01,1730.02,,,,,,,,,,,,,,
1719851572830444550,,,,,,,,,,,,,,,,,,,,,,,,,,369.996,-1130.01,1730.02,,,,,,,,,,,,,,
1719851572831541854,,,,,,,,,,,,,,,,,,,,,,,,,,369.996,-1130.01,1730.02,,,,,,,,,,,,,,
1719851572832624123,,,,,,,,,,,,,,,,,,,,,,,,,,369.996,-1130.01,1730.02,,,,,,,,,,,,,,
1719851572835174868,,,,,,,,,,,,,,,,,,,,,,,,,,369.996,-1130.02,1730.02,,,,,,,,,,,,,,
1719851572838734457,,,,,,,,,,,,,,,,,,,,,,,,,,369.996,-1130.02,1730.02,,,,,,,,,,,,,,
1719851572841381585,,,,,,,,,,,,,,,,,,,,,,,,,,369.995,-1130.01,1730.02,,,,,,,,,,,,,,
1719851572843609192,,,,,,,,,,,,,,,,,,,,,,,,,,,,,0.0642324,0.607572,0.386596,0.69085,,,,,,,,,,
1719851572844697709,,,,,,,,,,,,,,,,,,,,,,,,,,369.995,-1130.02,1730.02,,,,,,,,,,,,,,
1719851572846127913,,,,,,,,,,,,,,,,,,,,,,,,,,369.998,-1130.01,1730.01,,,,,,,,,,,,,,
1719851572846323073,,,,,,,,,,,,,,,,,,,,,,,,,,,,,,,,,,-78.3792,9.3027,-1.75808,88.2768,105.585,53.4511,,,
1719851572847181723,,,,,,,,,,,,,,,,,,,,,,,,,,369.998,-1130.01,1730.01,,,,,,,,,,,,,,
1719851572850909847,,,,,,,,,,,,,,,,,,,,,,,,,,369.997,-1130.02,1730.02,,,,,,,,,,,,,,
1719851572853621992,,,,,,,,,,,,,,,,,,,,,,,,,,369.997,-1130.02,1730.02,,,,,,,,,,,,,,
1719851572854271045,,,,,,,,,,,,,,,,,,,,,,,,,,,,,0.0642333,0.607572,0.386595,0.69085,,,,,,,,,,
1719851572856837859,,,,,,,,,,,,,,,,,,,,,,,,,,369.995,-1130.02,1730.02,,,,,,,,,,,,,,
1719851572857286180,,,,,,,,,,,,,,,,,,,,,,,,,,,,,,,,,0.0,,,,,,,,,
1719851572858349692,,,,,,,,,,,,,,,,,,,,,,,,,,369.999,-1130.01,1730.02,,,,,,,,,,,,,,
1719851572858606198,,,,,,,,,,,,,,,,,,,,,,,,,,,,,,,,,,-78.3792,9.30279,-1.75829,88.277,105.585,53.451,,,
1719851572859490281,,,,,,,,,,,,,,,,,,,,,,,,,,369.999,-1130.01,1730.02,,,,,,,,,,,,,,
1719851572859535411,,,,,,,,,,,,,,,,,,,,,,,,,,,,,,,,,0.0,,,,,,,,,
1719851572861937801,,,,,,,,,,,,,,,,,,,,,,,,,,369.999,-1130.01,1730.02,,,,,,,,,,,,,,
1719851572862241743,,,,,,,,,,,,,,,,,,,,,,,,,,,,,,,,,,-78.3792,9.30279,-1.75829,88.277,105.585,53.451,,,
1719851572865554113,,,,,,,,,,,,,,,,,,,,,,,,,,369.995,-1130.01,1730.02,,,,,,,,,,,,,,
1719851572865866858,,,,,,,,,,,,,,,,,,,,,,,,,,,,,,,,,,-78.3794,9.30266,-1.75821,88.2768,105.585,53.451,,,
1719851572868108859,,,,,,,,,,,,,,,,,,,,,,,,,,369.997,-1130.01,1730.02,,,,,,,,,,,,,,
1719851572868349927,,,,,,,,,,,,,,,,,,,,,,,,,,,,,,,,,,-78.3793,9.30279,-1.75821,88.2768,105.585,53.4512,,,
1719851572869589608,,,,,,,,,,,,,,,,,,,,,,,,,,369.997,-1130.01,1730.02,,,,,,,,,,,,,,
1719851572870201006,,,,,,,,,,,,,,,,,,,,,,,,,,,,,,,,,,-78.3793,9.30279,-1.75821,88.2768,105.585,53.4512,,,
1719851572870215779,,,,,,,,,,,,,,,,,,,,,,,,,,369.996,-1130.01,1730.02,,,,,,,,,,,,,,
1719851572870315610,,,,,,,,,,,,,,,,,,,,,,,,,,,,,0.0642338,0.607569,0.386597,0.690852,,,,,,,,,,
1719851572870670868,,,,,,,,,,,,,,,,,,,,,,,,,,,,,,,,,,-78.3793,9.30266,-1.75837,88.2768,105.585,53.4511,,,
1719851572871752853,,,,,,,,,,,,,,,,,,,,,,,,,,369.996,-1130.01,1730.02,,,,,,,,,,,,,,
1719851572872065124,,,,,,,,,,,,,,,,,,,,,,,,,,,,,,,,,,-78.3793,9.30266,-1.75837,88.2768,105.585,53.4511,,,
1719851572874319501,,,,,,,,,,,,,,,,,,,,,,,,,,369.996,-1130.01,1730.02,,,,,,,,,,,,,,
1719851572874602307,,,,,,,,,,,,,,,,,,,,,,,,,,,,,,,,,,-78.3793,9.30266,-1.75837,88.2768,105.585,53.4511,,,
1719851573267959586,,,,,,,,,,,,,,,,,,,,,,,,,,369.999,-1130.01,1730.01,,,,,,,,,,,,,,
1719851573270353178,,,,,,,,,,,,,,,,,,,,,,,,,,369.997,-1130.01,1730.01,,,,,,,,,,,,,,
1719851573271431952,,,,,,,,,,,,,,,,,,,,,,,,,,369.997,-1130.01,1730.01,,,,,,,,,,,,,,
1719851573273529548,,,,,,,,,,,,,,,,,,,,,,,,,,,,,0.0642227,0.607572,0.386594,0.690852,,,,,,,,,,
1719851573273540530,,,,,,,,,,,,,,,,,,,,,,,,,,369.997,-1130.01,1730.01,,,,,,,,,,,,,,
1719851573276080438,,,,,,,,,,,,,,,,,,,,,,,,,,369.995,-1130.01,1730.01,,,,,,,,,,,,,,
1719851573277563646,,,,,,,,,,,,,,,,,,,,,,,,,,,,,,,,,,-78.3793,9.30237,-1.75783,88.2768,105.586,53.4517,,,
1719851573279790576,,,,,,,,,,,,,,,,,,,,,,,,,,369.999,-1130.01,1730.01,,,,,,,,,,,,,,
1719851573283235710,,,,,,,,,,,,,,,,,,,,,,,,,,369.997,-1130.01,1730.01,,,,,,,,,,,,,,
1719851573284174592,,,,,,,,,,,,,,,,,,,,,,,,,,369.997,-1130.01,1730.01,,,,,,,,,,,,,,
1719851573285667550,,,,,,,,,,,,,,,,,,,,,,,,,,,,,,,,,,-78.3792,9.30237,-1.75775,88.2765,105.585,53.4516,,,
1719851573286493685,,,,,,,,,,,,,,,,,,,,,,,,,,369.997,-1130.01,1730.01,,,,,,,,,,,,,,
1719851573286729809,,,,,,,,,,,,,,,,,,,,,,,,,,,,,,,,,,-78.3792,9.30225,-1.75775,88.2765,105.585,53.4516,,,
1719851573287444758,,,,,,,,,,,,,,,,,,,,,,,,,,369.997,-1130.01,1730.01,,,,,,,,,,,,,,
1719851573288171826,,,,,,,,,,,,,,,,,,,,,,,,,,,,,,,,,,-78.3792,9.30225,-1.75775,88.2765,105.585,53.4516,,,
1719851573290408885,,,,,,,,,,,,,,,,,,,,,,,,,,,,,,,,,,-78.3792,9.30225,-1.75775,88.2765,105.585,53.4516,,,
1719851573290424128,,,,,,,,,,,,,,,,,,,,,,,,,,369.997,-1130.01,1730.01,,,,,,,,,,,,,,
1719851573293081668,,,,,,,,,,,,,,,,,,,,,,,,,,,,,,,,,0.0,,,,,,,,,
1719851573293091536,,,,,,,,,,,,,,,,,,,,,,,,,,369.997,-1130.01,1730.01,,,,,,,,,,,,,,
1719851573295756238,,,,,,,,,,,,,,,,,,,,,,,,,,369.997,-1130.01,1730.01,,,,,,,,,,,,,,
1719851573296730774,,,,,,,,,,,,,,,,,,,,,,,,,,,,,,,,,,-78.3792,9.3025,-1.75783,88.2773,105.586,53.4518,,,
1719851573296992542,,,,,,,,,,,,,,,,,,,,,,,,,,369.997,-1130.01,1730.01,,,,,,,,,,,,,,
1719851573297067786,,,,,,,,,,,,,,,,,,,,,,,,,,,,,0.0642273,0.60757,0.386595,0.690853,,,,,,,,,,
1719851573297428978,,,,,,,,,,,,,,,,,,,,,,,,,,,,,,,,,,-78.3792,9.3025,-1.75783,88.2773,105.586,53.4518,,,
1719851573298048227,,,,,,,,,,,,,,,,,,,,,,,,,,369.995,-1130.01,1730.01,,,,,,,,,,,,,,
1719851573298126106,,,,,,,,,,,,,,,,,,,,,,,,,,,,,0.0642273,0.60757,0.386595,0.690853,,,,,,,,,,
1719851573298396717,,,,,,,,,,,,,,,,,,,,,,,,,,,,,,,,,,-78.3793,9.30245,-1.75783,88.2768,105.586,53.4513,,,
1719851573300645305,,,,,,,,,,,,,,,,,,,,,,,,,,369.995,-1130.01,1730.01,,,,,,,,,,,,,,
1719851573300724121,,,,,,,,,,,,,,,,,,,,,,,,,,,,,0.0642273,0.60757,0.386595,0.690853,,,,,,,,,,
1719851573300803298,,,,,,,,,,,,,,,,,,,,,,,,,,,,,,,,,108.492,,,,,,,,,
1719851573300991936,,,,,,,,,,,,,,,,,,,,,,,,,,,,,,,,,,-78.3793,9.30245,-1.75783,88.2768,105.586,53.4513,,,
1719851573304903749,,,,,,,,,,,,,,,,,,,,,,,,,,369.997,-1130.01,1730.01,,,,,,,,,,,,,,
1719851573304977531,,,,,,,,,,,,,,,,,,,,,,,,,,,,,0.0642255,0.607569,0.386594,0.690855,,,,,,,,,,
1719851573305279467,,,,,,,,,,,,,,,,,,,,,,,,,,,,,,,,,,-78.3792,9.3025,-1.75775,88.277,105.586,53.4515,,,
1719851573307417890,,,,,,,,,,,,,,,,,,,,,,,,,,369.995,-1130.01,1730.01,,,,,,,,,,,,,,
1719851573307508099,,,,,,,,,,,,,,,,,,,,,,,,,,,,,0.0642248,0.60757,0.386592,0.690855,,,,,,,,,,
1719851573307864481,,,,,,,,,,,,,,,,,,,,,,,,,,,,,,,,,,-78.3793,9.30233,-1.75783,88.277,105.586,53.4518,,,
1719851573309853527,,,,,,,,,,,,,,,,,,,,,,,,,,369.995,-1130.01,1730.01,,,,,,,,,,,,,,
1719851573309949086,,,,,,,,,,,,,,,,,,,,,,,,,,,,,0.0642221,0.60757,0.386594,0.690854,,,,,,,,,,
1719851573310203891,,,,,,,,,,,,,,,,,,,,,,,,,,,,,,,,,,-78.3793,9.30233,-1.75783,88.277,105.586,53.4518,,,
1719851573311089463,,,,,,,,,,,,,,,,,,,,,,,,,,,,,0.0642221,0.60757,0.386594,0.690854,,,,,,,,,,
1719851573311133968,,,,,,,,,,,,,,,,,,,,,,,,,,369.999,-1130.0,1730.01,,,,,,,,,,,,,,
1719851573311244531,,,,,,,,,,,,,,,,,,,,,,,,,,,,,,,,,,-78.3791,9.30216,-1.75783,88.2768,105.586,53.4518,,,
1719851573312160329,,,,,,,,,,,,,,,,,,,,,,,,,,,,,0.0642221,0.60757,0.386594,0.690854,,,,,,,,,,
1719851573312194731,,,,,,,,,,,,,,,,,,,,,,,,,,369.999,-1130.0,1730.01,,,,,,,,,,,,,,
1719851573312775276,,,,,,,,,,,,,,,,,,,,,,,,,,,,,,,,,,-78.3791,9.30216,-1.75783,88.2768,105.586,53.4518,,,
1719851573316033908,,,,,,,,,,,,,,,,,,,,,,,,,,370.0,-1129.96,1730.03,,,,,,,,,,,,,,
1719851573316064795,,,,,,,,,,,,,,,,,,,,,,,,,,,,,,,,,108.492,,,,,,,,,
1719851573318417488,,,,,,,,,,,,,,,,,,,,,,,,,,370.003,-1129.87,1730.05,,,,,,,,,,,,,,
1719851573318458853,,,,,,,,,,,,,,,,,,,,,,,,,,,,,0.0642198,0.607563,0.386609,0.690852,,,,,,,,,,
1719851573319725423,,,,,,,,,,,,,,,,,,,,,,,,,,,,,,,,,108.492,,,,,,,,,
1719851573319896459,,,,,,,,,,,,,,,,,,,,,,,,,,,,,,,,,,-78.3775,9.2941,-1.75904,88.2768,105.586,53.4518,,,
1719851573322310845,,,,,,,,,,,,,,,,,,,,,,,,,,370.022,-1129.77,1730.09,,,,,,,,,,,,,,
1719851573322352658,,,,,,,,,,,,,,,,,,,,,,,,,,,,,0.0642232,0.607553,0.386629,0.69085,,,,,,,,,,
1719851573322555607,,,,,,,,,,,,,,,,,,,,,,,,,,,,,,,,,,-78.3775,9.2941,-1.75904,88.2768,105.586,53.4518,,,
1719851573323373635,,,,,,,,,,,,,,,,,,,,,,,,,,370.022,-1129.77,1730.09,,,,,,,,,,,,,,
1719851573323425166,,,,,,,,,,,,,,,,,,,,,,,,,,,,,0.0642232,0.607553,0.386629,0.69085,,,,,,,,,,
1719851573323629290,,,,,,,,,,,,,,,,,,,,,,,,,,,,,,,,,,-78.3757,9.28855,-1.76092,88.277,105.585,53.4517,,,
1719851573324924700,,,,,,,,,,,,,,,,,,,,,,,,,,370.022,-1129.77,1730.09,,,,,,,,,,,,,,
1719851573324956558,,,,,,,,,,,,,,,,,,,,,,,,,,,,,0.0642232,0.607553,0.386629,0.69085,,,,,,,,,,
1719851573325172236,,,,,,,,,,,,,,,,,,,,,,,,,,,,,,,,,,-78.3757,9.28855,-1.76092,88.277,105.585,53.4517,,,
1719851573327926482,,,,,,,,,,,,,,,,,,,,,,,,,,370.035,-1129.62,1730.16,,,,,,,,,,,,,,
1719851573327974483,,,,,,,,,,,,,,,,,,,,,,,,,,,,,0.0642325,0.607542,0.386655,0.690844,,,,,,,,,,
1719851573328192195,,,,,,,,,,,,,,,,,,,,,,,,,,,,,,,,,,-78.3737,9.28028,-1.7638,88.277,105.585,53.4514,,,
1719851573330426879,,,,,,,,,,,,,,,,,,,,,,,,,,370.052,-1129.42,1730.23,,,,,,,,,,,,,,
1719851573330495117,,,,,,,,,,,,,,,,,,,,,,,,,,,,,0.0642308,0.60753,0.386684,0.690838,,,,,,,,,,
1719851573330674508,,,,,,,,,,,,,,,,,,,,,,,,,,,,,,,,,239.719,,,,,,,,,
1719851573330885566,,,,,,,,,,,,,,,,,,,,,,,,,,,,,,,,,,-78.3708,9.26854,-1.76689,88.2768,105.585,53.452,,,
1719851573332197423,,,,,,,,,,,,,,,,,,,,,,,,,,370.052,-1129.42,1730.23,,,,,,,,,,,,,,
1719851573332266527,,,,,,,,,,,,,,,,,,,,,,,,,,,,,0.0642308,0.60753,0.386684,0.690838,,,,,,,,,,
1719851573333417145,,,,,,,,,,,,,,,,,,,,,,,,,,,,,,,,,239.719,,,,,,,,,
1719851573333578423,,,,,,,,,,,,,,,,,,,,,,,,,,,,,,,,,,-78.3708,9.26854,-1.76689,88.2768,105.585,53.452,,,
1719851573335621453,,,,,,,,,,,,,,,,,,,,,,,,,,370.082,-1129.22,1730.3,,,,,,,,,,,,,,
1719851573335672524,,,,,,,,,,,,,,,,,,,,,,,,,,,,,0.064228,0.607516,0.386713,0.690834,,,,,,,,,,
1719851573335896739,,,,,,,,,,,,,,,,,,,,,,,,,,,,,,,,,,-78.3675,9.25718,-1.7699,88.277,105.584,53.4526,,,
1719851573337772187,,,,,,,,,,,,,,,,,,,,,,,,,,370.082,-1129.22,1730.3,,,,,,,,,,,,,,
1719851573337817569,,,,,,,,,,,,,,,,,,,,,,,,,,,,,0.064228,0.607516,0.386713,0.690834,,,,,,,,,,
1719851573338040862,,,,,,,,,,,,,,,,,,,,,,,,,,,,,,,,,,-78.3675,9.25718,-1.7699,88.277,105.584,53.4526,,,
1719851573338985242,,,,,,,,,,,,,,,,,,,,,,,,,,370.114,-1128.99,1730.39,,,,,,,,,,,,,,
1719851573339038765,,,,,,,,,,,,,,,,,,,,,,,,,,,,,0.0642333,0.607506,0.386739,0.690828,,,,,,,,,,
1719851573339120737,,,,,,,,,,,,,,,,,,,,,,,,,,,,,,,,,239.719,,,,,,,,,
1719851573341477335,,,,,,,,,,,,,,,,,,,,,,,,,,370.153,-1128.69,1730.48,,,,,,,,,,,,,,
1719851573342711268,,,,,,,,,,,,,,,,,,,,,,,,,,,,,0.0642358,0.607499,0.38676,0.690822,,,,,,,,,,
1719851573342740487,,,,,,,,,,,,,,,,,,,,,,,,,,,,,,,,,239.719,,,,,,,,,
1719851573345482159,,,,,,,,,,,,,,,,,,,,,,,,,,370.201,-1128.37,1730.59,,,,,,,,,,,,,,
1719851573345521058,,,,,,,,,,,,,,,,,,,,,,,,,,,,,0.0642411,0.607499,0.386771,0.690815,,,,,,,,,,
1719851573345779481,,,,,,,,,,,,,,,,,,,,,,,,,,,,,,,,,,-78.3538,9.20711,-1.78126,88.277,105.574,53.458,,,
1719851573350033459,,,,,,,,,,,,,,,,,,,,,,,,,,370.201,-1128.37,1730.59,,,,,,,,,,,,,,
1719851573350154164,,,,,,,,,,,,,,,,,,,,,,,,,,,,,0.0642411,0.607499,0.386771,0.690815,,,,,,,,,,
1719851573350377396,,,,,,,,,,,,,,,,,,,,,,,,,,,,,,,,,,-78.3538,9.20711,-1.78126,88.277,105.574,53.458,,,
1719851573351113503,,,,,,,,,,,,,,,,,,,,,,,,,,370.265,-1127.98,1730.72,,,,,,,,,,,,,,
1719851573351183311,,,,,,,,,,,,,,,,,,,,,,,,,,,,,0.0642464,0.607502,0.386782,0.690806,,,,,,,,,,
1719851573351394113,,,,,,,,,,,,,,,,,,,,,,,,,,,,,,,,,,-78.3472,9.1841,-1.78602,88.2768,105.568,53.4618,,,
1719851573352191210,,,,,,,,,,,,,,,,,,,,,,,,,,370.265,-1127.98,1730.72,,,,,,,,,,,,,,
1719851573352234012,,,,,,,,,,,,,,,,,,,,,,,,,,,,,0.0642464,0.607502,0.386782,0.690806,,,,,,,,,,
1719851573352448427,,,,,,,,,,,,,,,,,,,,,,,,,,,,,,,,,,-78.3472,9.1841,-1.78602,88.2768,105.568,53.4618,,,
1719851573353637659,,,,,,,,,,,,,,,,,,,,,,,,,,370.336,-1127.51,1730.86,,,,,,,,,,,,,,
1719851573354787229,,,,,,,,,,,,,,,,,,,,,,,,,,,,,0.0642477,0.607503,0.386791,0.6908,,,,,,,,,,
1719851573354821985,,,,,,,,,,,,,,,,,,,,,,,,,,,,,,,,,239.719,,,,,,,,,
1719851573355053270,,,,,,,,,,,,,,,,,,,,,,,,,,,,,,,,,,-78.3394,9.15591,-1.79095,88.277,105.561,53.4661,,,
1719851573358338615,,,,,,,,,,,,,,,,,,,,,,,,,,370.415,-1127.01,1731.0,,,,,,,,,,,,,,
1719851573358382640,,,,,,,,,,,,,,,,,,,,,,,,,,,,,0.0642397,0.607513,0.386789,0.690793,,,,,,,,,,
1719851573358592261,,,,,,,,,,,,,,,,,,,,,,,,,,,,,,,,,,-78.331,9.12597,-1.79525,88.2768,105.553,53.4717,,,
1719851573362150647,,,,,,,,,,,,,,,,,,,,,,,,,,370.415,-1127.01,1731.0,,,,,,,,,,,,,,
1719851573362291159,,,,,,,,,,,,,,,,,,,,,,,,,,,,,0.0642397,0.607513,0.386789,0.690793,,,,,,,,,,
1719851573362497841,,,,,,,,,,,,,,,,,,,,,,,,,,,,,,,,,,-78.331,9.12597,-1.79525,88.2768,105.553,53.4717,,,
1719851573364390360,,,,,,,,,,,,,,,,,,,,,,,,,,370.507,-1126.53,1731.13,,,,,,,,,,,,,,
1719851573364479620,,,,,,,,,,,,,,,,,,,,,,,,,,,,,0.0642367,0.607526,0.386776,0.69079,,,,,,,,,,
1719851573365115024,,,,,,,,,,,,,,,,,,,,,,,,,,,,,,,,,,-78.3222,9.09724,-1.79913,88.277,105.543,53.4774,,,
1719851573365968289,,,,,,,,,,,,,,,,,,,,,,,,,,370.613,-1125.97,1731.27,,,,,,,,,,,,,,
1719851573366014885,,,,,,,,,,,,,,,,,,,,,,,,,,,,,0.0642226,0.607544,0.386756,0.690786,,,,,,,,,,
1719851573366314137,,,,,,,,,,,,,,,,,,,,,,,,,,,,,,,,,,-78.312,9.0637,-1.80323,88.277,105.532,53.4851,,,
1719851573367017350,,,,,,,,,,,,,,,,,,,,,,,,,,370.613,-1125.97,1731.27,,,,,,,,,,,,,,
1719851573367077886,,,,,,,,,,,,,,,,,,,,,,,,,,,,,0.0642226,0.607544,0.386756,0.690786,,,,,,,,,,
1719851573367256855,,,,,,,,,,,,,,,,,,,,,,,,,,,,,,,,,,-78.312,9.0637,-1.80323,88.277,105.532,53.4851,,,
1719851573369693168,,,,,,,,,,,,,,,,,,,,,,,,,,370.728,-1125.38,1731.42,,,,,,,,,,,,,,
1719851573369725971,,,,,,,,,,,,,,,,,,,,,,,,,,,,,0.0642127,0.607564,0.386736,0.69078,,,,,,,,,,
1719851573370069127,,,,,,,,,,,,,,,,,,,,,,,,,,,,,,,,,,-78.3011,9.02812,-1.80728,88.2768,105.52,53.4923,,,
1719851573372032070,,,,,,,,,,,,,,,,,,,,,,,,,,370.728,-1125.38,1731.42,,,,,,,,,,,,,,
1719851573372079241,,,,,,,,,,,,,,,,,,,,,,,,,,,,,0.0642127,0.607564,0.386736,0.69078,,,,,,,,,,
1719851573372331058,,,,,,,,,,,,,,,,,,,,,,,,,,,,,,,,,,-78.3011,9.02812,-1.80728,88.2768,105.52,53.4923,,,
1719851573374557174,,,,,,,,,,,,,,,,,,,,,,,,,,370.84,-1124.81,1731.55,,,,,,,,,,,,,,
1719851573374714551,,,,,,,,,,,,,,,,,,,,,,,,,,,,,0.064204,0.607591,0.386701,0.690777,,,,,,,,,,
1719851573374794132,,,,,,,,,,,,,,,,,,,,,,,,,,,,,,,,,239.719,,,,,,,,,
1719851573375008663,,,,,,,,,,,,,,,,,,,,,,,,,,,,,,,,,,-78.2905,8.99317,-1.81066,88.2768,105.506,53.5003,,,
1719851573375788176,,,,,,,,,,,,,,,,,,,,,,,,,,370.84,-1124.81,1731.55,,,,,,,,,,,,,,
1719851573375838314,,,,,,,,,,,,,,,,,,,,,,,,,,,,,0.064204,0.607591,0.386701,0.690777,,,,,,,,,,
1719851573376039095,,,,,,,,,,,,,,,,,,,,,,,,,,,,,,,,,,-78.2905,8.99317,-1.81066,88.2768,105.506,53.5003,,,
1719851573377207724,,,,,,,,,,,,,,,,,,,,,,,,,,370.84,-1124.81,1731.55,,,,,,,,,,,,,,
1719851573377253033,,,,,,,,,,,,,,,,,,,,,,,,,,,,,0.064204,0.607591,0.386701,0.690777,,,,,,,,,,
1719851573377560290,,,,,,,,,,,,,,,,,,,,,,,,,,,,,,,,,,-78.2905,8.99317,-1.81066,88.2768,105.506,53.5003,,,
1719851573378379215,,,,,,,,,,,,,,,,,,,,,,,,,,370.972,-1124.14,1731.72,,,,,,,,,,,,,,
1719851573378426654,,,,,,,,,,,,,,,,,,,,,,,,,,,,,0.0642058,0.607615,0.386669,0.690774,,,,,,,,,,
1719851573379817849,,,,,,,,,,,,,,,,,,,,,,,,,,,,,,,,,,-78.2781,8.95291,-1.8155,88.2773,105.491,53.5087,,,
1719851573382374006,,,,,,,,,,,,,,,,,,,,,,,,,,370.972,-1124.14,1731.72,,,,,,,,,,,,,,
1719851573382451488,,,,,,,,,,,,,,,,,,,,,,,,,,,,,0.0642041,0.607635,0.386656,0.690763,,,,,,,,,,
1719851573382623194,,,,,,,,,,,,,,,,,,,,,,,,,,,,,,,,,,-78.2781,8.95291,-1.8155,88.2773,105.491,53.5087,,,
1719851573387751404,,,,,,,,,,,,,,,,,,,,,,,,,,371.255,-1122.67,1732.13,,,,,,,,,,,,,,
1719851573387797193,,,,,,,,,,,,,,,,,,,,,,,,,,,,,0.0641987,0.607655,0.386642,0.690754,,,,,,,,,,
1719851573388013826,,,,,,,,,,,,,,,,,,,,,,,,,,,,,,,,,,-78.251,8.86529,-1.8292,88.277,105.461,53.5269,,,
1719851573390461446,,,,,,,,,,,,,,,,,,,,,,,,,,371.418,-1121.87,1732.37,,,,,,,,,,,,,,
1719851573390505241,,,,,,,,,,,,,,,,,,,,,,,,,,,,,0.0642011,0.607668,0.386641,0.690744,,,,,,,,,,
1719851573390594452,,,,,,,,,,,,,,,,,,,,,,,,,,,,,,,,,239.719,,,,,,,,,
1719851573390805076,,,,,,,,,,,,,,,,,,,,,,,,,,,,,,,,,,-78.2357,8.81793,-1.83764,88.2773,105.445,53.536,,,
1719851573391532414,,,,,,,,,,,,,,,,,,,,,,,,,,371.418,-1121.87,1732.37,,,,,,,,,,,,,,
1719851573391607490,,,,,,,,,,,,,,,,,,,,,,,,,,,,,0.0642011,0.607668,0.386641,0.690744,,,,,,,,,,
1719851573391683708,,,,,,,,,,,,,,,,,,,,,,,,,,,,,,,,,239.719,,,,,,,,,
1719851573392575947,,,,,,,,,,,,,,,,,,,,,,,,,,371.418,-1121.87,1732.37,,,,,,,,,,,,,,
1719851573392653260,,,,,,,,,,,,,,,,,,,,,,,,,,,,,0.0642011,0.607668,0.386641,0.690744,,,,,,,,,,
1719851573392726180,,,,,,,,,,,,,,,,,,,,,,,,,,,,,,,,,239.719,,,,,,,,,
1719851573393196408,,,,,,,,,,,,,,,,,,,,,,,,,,,,,,,,,,-78.2357,8.81793,-1.83764,88.2773,105.445,53.536,,,
1719851573394292228,,,,,,,,,,,,,,,,,,,,,,,,,,371.572,-1121.01,1732.65,,,,,,,,,,,,,,
1719851573394337072,,,,,,,,,,,,,,,,,,,,,,,,,,,,,0.0642097,0.607683,0.386644,0.690728,,,,,,,,,,
1719851573394517085,,,,,,,,,,,,,,,,,,,,,,,,,,,,,,,,,,-78.2203,8.76715,-1.84816,88.2773,105.429,53.5464,,,
1719851573396688808,,,,,,,,,,,,,,,,,,,,,,,,,,371.572,-1121.01,1732.65,,,,,,,,,,,,,,
1719851573397275790,,,,,,,,,,,,,,,,,,,,,,,,,,,,,0.0642097,0.607683,0.386644,0.690728,,,,,,,,,,
1719851573397300865,,,,,,,,,,,,,,,,,,,,,,,,,,,,,,,,,239.719,,,,,,,,,
1719851573399504603,,,,,,,,,,,,,,,,,,,,,,,,,,371.744,-1120.18,1732.91,,,,,,,,,,,,,,
1719851573399535051,,,,,,,,,,,,,,,,,,,,,,,,,,,,,,,,,239.719,,,,,,,,,
1719851573400801746,,,,,,,,,,,,,,,,,,,,,,,,,,,,,,,,,,-78.2043,8.71821,-1.85823,88.2768,105.413,53.5561,,,
1719851573402257176,,,,,,,,,,,,,,,,,,,,,,,,,,371.915,-1119.32,1733.17,,,,,,,,,,,,,,
1719851573402462931,,,,,,,,,,,,,,,,,,,,,,,,,,,,,0.0642245,0.607711,0.386653,0.690697,,,,,,,,,,
1719851573403186427,,,,,,,,,,,,,,,,,,,,,,,,,,371.915,-1119.32,1733.17,,,,,,,,,,,,,,
1719851573403321593,,,,,,,,,,,,,,,,,,,,,,,,,,,,,,,,,239.719,,,,,,,,,
1719851573404336914,,,,,,,,,,,,,,,,,,,,,,,,,,,,,,,,,239.719,,,,,,,,,
1719851573404364324,,,,,,,,,,,,,,,,,,,,,,,,,,371.915,-1119.32,1733.17,,,,,,,,,,,,,,
1719851573409870798,,,,,,,,,,,,,,,,,,,,,,,,,,,,,0.0642243,0.607719,0.386658,0.690687,,,,,,,,,,
1719851573409886957,,,,,,,,,,,,,,,,,,,,,,,,,,372.086,-1118.42,1733.45,,,,,,,,,,,,,,
1719851573410173580,,,,,,,,,,,,,,,,,,,,,,,,,,,,,,,,,,-78.1714,8.61418,-1.8779,88.2777,105.379,53.5762,,,
1719851573412523631,,,,,,,,,,,,,,,,,,,,,,,,,,372.256,-1117.55,1733.72,,,,,,,,,,,,,,
1719851573412884287,,,,,,,,,,,,,,,,,,,,,,,,,,,,,,,,,,-78.155,8.5629,-1.88821,88.2779,105.363,53.5856,,,
1719851573414392913,,,,,,,,,,,,,,,,,,,,,,,,,,,,,0.0642275,0.607742,0.386677,0.690656,,,,,,,,,,
1719851573414412189,,,,,,,,,,,,,,,,,,,,,,,,,,372.433,-1116.65,1733.98,,,,,,,,,,,,,,
1719851573414647118,,,,,,,,,,,,,,,,,,,,,,,,,,,,,,,,,,-78.138,8.5104,-1.89823,88.2774,105.346,53.5962,,,
1719851573415532651,,,,,,,,,,,,,,,,,,,,,,,,,,,,,0.0642275,0.607742,0.386677,0.690656,,,,,,,,,,
1719851573415550151,,,,,,,,,,,,,,,,,,,,,,,,,,372.433,-1116.65,1733.98,,,,,,,,,,,,,,
1719851573416426078,,,,,,,,,,,,,,,,,,,,,,,,,,372.433,-1116.65,1733.98,,,,,,,,,,,,,,
1719851573416479887,,,,,,,,,,,,,,,,,,,,,,,,,,,,,0.0642275,0.607742,0.386677,0.690656,,,,,,,,,,
1719851573416695584,,,,,,,,,,,,,,,,,,,,,,,,,,,,,,,,,,-78.138,8.5104,-1.89823,88.2774,105.346,53.5962,,,
1719851573418984558,,,,,,,,,,,,,,,,,,,,,,,,,,372.271,-1115.83,1734.25,,,,,,,,,,,,,,
1719851573419058837,,,,,,,,,,,,,,,,,,,,,,,,,,,,,0.064231,0.607756,0.386678,0.690643,,,,,,,,,,
1719851573421894499,,,,,,,,,,,,,,,,,,,,,,,,,,372.604,-1115.71,1734.25,,,,,,,,,,,,,,
1719851573422005385,,,,,,,,,,,,,,,,,,,,,,,,,,,,,0.064231,0.607756,0.386678,0.690643,,,,,,,,,,
1719851573423792193,,,,,,,,,,,,,,,,,,,,,,,,,,,,,,,,,239.719,,,,,,,,,
1719851573424137428,,,,,,,,,,,,,,,,,,,,,,,,,,,,,,,,,,-78.1209,8.45473,-1.90755,88.2774,105.329,53.606,,,
1719851573426557521,,,,,,,,,,,,,,,,,,,,,,,,,,372.938,-1113.91,1734.74,,,,,,,,,,,,,,
1719851573426681340,,,,,,,,,,,,,,,,,,,,,,,,,,,,,,,,,239.719,,,,,,,,,
1719851573428750613,,,,,,,,,,,,,,,,,,,,,,,,,,372.938,-1113.91,1734.74,,,,,,,,,,,,,,
1719851573429021872,,,,,,,,,,,,,,,,,,,,,,,,,,,,,,,,,239.719,,,,,,,,,
1719851573430623295,,,,,,,,,,,,,,,,,,,,,,,,,,372.938,-1113.91,1734.74,,,,,,,,,,,,,,
1719851573430691317,,,,,,,,,,,,,,,,,,,,,,,,,,,,,0.0642065,0.607782,0.386676,0.690623,,,,,,,,,,
1719851573431132480,,,,,,,,,,,,,,,,,,,,,,,,,,,,,,,,,,-78.0876,8.34757,-1.92458,88.2777,105.296,53.6269,,,
1719851573431731675,,,,,,,,,,,,,,,,,,,,,,,,,,373.099,-1112.97,1735.0,,,,,,,,,,,,,,
1719851573431807921,,,,,,,,,,,,,,,,,,,,,,,,,,,,,0.0641981,0.607794,0.386672,0.690615,,,,,,,,,,
1719851573432036279,,,,,,,,,,,,,,,,,,,,,,,,,,,,,,,,,,-78.0709,8.29186,-1.9331,88.2782,105.28,53.6372,,,
1719851573434585378,,,,,,,,,,,,,,,,,,,,,,,,,,373.267,-1112.06,1735.24,,,,,,,,,,,,,,
1719851573434634575,,,,,,,,,,,,,,,,,,,,,,,,,,,,,0.0641964,0.607808,0.386668,0.690605,,,,,,,,,,
1719851573434730032,,,,,,,,,,,,,,,,,,,,,,,,,,,,,,,,,239.719,,,,,,,,,
1719851573434941099,,,,,,,,,,,,,,,,,,,,,,,,,,,,,,,,,,-78.0541,8.23757,-1.94158,88.2784,105.263,53.6471,,,
1719851573436227250,,,,,,,,,,,,,,,,,,,,,,,,,,373.267,-1112.06,1735.24,,,,,,,,,,,,,,
1719851573436280704,,,,,,,,,,,,,,,,,,,,,,,,,,,,,0.0641964,0.607808,0.386668,0.690605,,,,,,,,,,
1719851573436515653,,,,,,,,,,,,,,,,,,,,,,,,,,,,,,,,,,-78.0541,8.23757,-1.94158,88.2784,105.263,53.6471,,,
1719851573439887170,,,,,,,,,,,,,,,,,,,,,,,,,,373.425,-1111.14,1735.49,,,,,,,,,,,,,,
1719851573439964813,,,,,,,,,,,,,,,,,,,,,,,,,,,,,0.0641879,0.607824,0.386666,0.690593,,,,,,,,,,
1719851573440161003,,,,,,,,,,,,,,,,,,,,,,,,,,,,,,,,,,-78.0376,8.18287,-1.95027,88.2782,105.246,53.6575,,,
1719851573440948725,,,,,,,,,,,,,,,,,,,,,,,,,,373.425,-1111.14,1735.49,,,,,,,,,,,,,,
1719851573441020845,,,,,,,,,,,,,,,,,,,,,,,,,,,,,0.0641879,0.607824,0.386666,0.690593,,,,,,,,,,
1719851573441211279,,,,,,,,,,,,,,,,,,,,,,,,,,,,,,,,,,-78.0376,8.18287,-1.95027,88.2782,105.246,53.6575,,,
1719851573442371215,,,,,,,,,,,,,,,,,,,,,,,,,,373.589,-1110.2,1735.75,,,,,,,,,,,,,,
1719851573442421628,,,,,,,,,,,,,,,,,,,,,,,,,,,,,0.0641788,0.607838,0.38667,0.69058,,,,,,,,,,
1719851573442502579,,,,,,,,,,,,,,,,,,,,,,,,,,,,,,,,,239.719,,,,,,,,,
1719851573442704179,,,,,,,,,,,,,,,,,,,,,,,,,,,,,,,,,,-78.0207,8.12736,-1.95933,88.2779,105.23,53.6677,,,
1719851573443495572,,,,,,,,,,,,,,,,,,,,,,,,,,373.589,-1110.2,1735.75,,,,,,,,,,,,,,
1719851573444646146,,,,,,,,,,,,,,,,,,,,,,,,,,,,,0.0641788,0.607838,0.38667,0.69058,,,,,,,,,,
1719851573444725898,,,,,,,,,,,,,,,,,,,,,,,,,,,,,,,,,239.719,,,,,,,,,
1719851573444926698,,,,,,,,,,,,,,,,,,,,,,,,,,,,,,,,,,-78.0207,8.12736,-1.95933,88.2779,105.23,53.6677,,,
1719851573447427724,,,,,,,,,,,,,,,,,,,,,,,,,,373.748,-1109.28,1736.0,,,,,,,,,,,,,,
1719851573447475419,,,,,,,,,,,,,,,,,,,,,,,,,,,,,0.0641736,0.607847,0.386669,0.690573,,,,,,,,,,
1719851573447553128,,,,,,,,,,,,,,,,,,,,,,,,,,,,,,,,,239.719,,,,,,,,,
1719851573451906316,,,,,,,,,,,,,,,,,,,,,,,,,,373.91,-1108.36,1736.25,,,,,,,,,,,,,,
1719851573451958765,,,,,,,,,,,,,,,,,,,,,,,,,,,,,0.0641763,0.607861,0.386675,0.690557,,,,,,,,,,
1719851573452165183,,,,,,,,,,,,,,,,,,,,,,,,,,,,,,,,,,-77.9874,8.01849,-1.97771,88.2782,105.197,53.6875,,,
1719851573455004658,,,,,,,,,,,,,,,,,,,,,,,,,,374.069,-1107.43,1736.52,,,,,,,,,,,,,,
1719851573455054396,,,,,,,,,,,,,,,,,,,,,,,,,,,,,0.0641725,0.607878,0.38668,0.690539,,,,,,,,,,
1719851573455246584,,,,,,,,,,,,,,,,,,,,,,,,,,,,,,,,,,-77.9707,7.96349,-1.98744,88.2774,105.18,53.6979,,,
1719851573456128322,,,,,,,,,,,,,,,,,,,,,,,,,,374.069,-1107.43,1736.52,,,,,,,,,,,,,,
1719851573456173759,,,,,,,,,,,,,,,,,,,,,,,,,,,,,0.0641725,0.607878,0.38668,0.690539,,,,,,,,,,
1719851573456371089,,,,,,,,,,,,,,,,,,,,,,,,,,,,,,,,,,-77.9707,7.96349,-1.98744,88.2774,105.18,53.6979,,,
1719851573457152205,,,,,,,,,,,,,,,,,,,,,,,,,,374.069,-1107.43,1736.52,,,,,,,,,,,,,,
1719851573457211861,,,,,,,,,,,,,,,,,,,,,,,,,,,,,0.0641725,0.607878,0.38668,0.690539,,,,,,,,,,
1719851573457291469,,,,,,,,,,,,,,,,,,,,,,,,,,,,,,,,,239.719,,,,,,,,,
1719851573457907517,,,,,,,,,,,,,,,,,,,,,,,,,,,,,,,,,,-77.9707,7.96349,-1.98744,88.2774,105.18,53.6979,,,
1719851573460417617,,,,,,,,,,,,,,,,,,,,,,,,,,374.234,-1106.5,1736.78,,,,,,,,,,,,,,
1719851573460464788,,,,,,,,,,,,,,,,,,,,,,,,,,,,,0.0641769,0.607877,0.386686,0.690537,,,,,,,,,,
1719851573460689666,,,,,,,,,,,,,,,,,,,,,,,,,,,,,,,,,,-77.9538,7.90887,-1.99733,88.2794,105.164,53.7077,,,
1719851573464056036,,,,,,,,,,,,,,,,,,,,,,,,,,374.393,-1105.58,1737.05,,,,,,,,,,,,,,
1719851573464137663,,,,,,,,,,,,,,,,,,,,,,,,,,,,,0.0641751,0.607893,0.386696,0.690517,,,,,,,,,,
1719851573466448882,,,,,,,,,,,,,,,,,,,,,,,,,,374.556,-1104.65,1737.32,,,,,,,,,,,,,,
1719851573466796504,,,,,,,,,,,,,,,,,,,,,,,,,,,,,0.0641876,0.607898,0.386709,0.690504,,,,,,,,,,
1719851573466878808,,,,,,,,,,,,,,,,,,,,,,,,,,,,,,,,,239.719,,,,,,,,,
1719851573467137844,,,,,,,,,,,,,,,,,,,,,,,,,,,,,,,,,,-77.9201,7.79953,-2.01842,88.2789,105.13,53.7275,,,
1719851573467825300,,,,,,,,,,,,,,,,,,,,,,,,,,374.556,-1104.65,1737.32,,,,,,,,,,,,,,
1719851573467891426,,,,,,,,,,,,,,,,,,,,,,,,,,,,,0.0641876,0.607898,0.386709,0.690504,,,,,,,,,,
1719851573467965501,,,,,,,,,,,,,,,,,,,,,,,,,,,,,,,,,239.719,,,,,,,,,
1719851573468166034,,,,,,,,,,,,,,,,,,,,,,,,,,,,,,,,,,-77.9201,7.79953,-2.01842,88.2789,105.13,53.7275,,,
1719851573468944956,,,,,,,,,,,,,,,,,,,,,,,,,,374.556,-1104.65,1737.32,,,,,,,,,,,,,,
1719851573468992651,,,,,,,,,,,,,,,,,,,,,,,,,,,,,0.0641876,0.607898,0.386709,0.690504,,,,,,,,,,
1719851573469187657,,,,,,,,,,,,,,,,,,,,,,,,,,,,,,,,,,-77.9201,7.79953,-2.01842,88.2789,105.13,53.7275,,,
1719851573470431208,,,,,,,,,,,,,,,,,,,,,,,,,,374.726,-1103.72,1737.59,,,,,,,,,,,,,,
1719851573470478613,,,,,,,,,,,,,,,,,,,,,,,,,,,,,0.0641863,0.60791,0.386719,0.690488,,,,,,,,,,
1719851573470738837,,,,,,,,,,,,,,,,,,,,,,,,,,,,,,,,,,-77.9201,7.79953,-2.01842,88.2789,105.13,53.7275,,,
1719851573471691541,,,,,,,,,,,,,,,,,,,,,,,,,,374.726,-1103.72,1737.59,,,,,,,,,,,,,,
1719851573471781635,,,,,,,,,,,,,,,,,,,,,,,,,,,,,0.0641863,0.60791,0.386719,0.690488,,,,,,,,,,
1719851573471886444,,,,,,,,,,,,,,,,,,,,,,,,,,,,,,,,,239.719,,,,,,,,,
1719851573472878346,,,,,,,,,,,,,,,,,,,,,,,,,,374.726,-1103.72,1737.59,,,,,,,,,,,,,,
1719851573473076788,,,,,,,,,,,,,,,,,,,,,,,,,,,,,0.0641863,0.60791,0.386719,0.690488,,,,,,,,,,
1719851573473142559,,,,,,,,,,,,,,,,,,,,,,,,,,,,,,,,,239.719,,,,,,,,,
1719851573473360832,,,,,,,,,,,,,,,,,,,,,,,,,,,,,,,,,,-77.9028,7.74508,-2.02874,88.2786,105.114,53.7378,,,
1719851573474859739,,,,,,,,,,,,,,,,,,,,,,,,,,374.881,-1102.8,1737.85,,,,,,,,,,,,,,
1719851573474928176,,,,,,,,,,,,,,,,,,,,,,,,,,,,,0.0641888,0.607922,0.386724,0.690475,,,,,,,,,,
1719851573475146161,,,,,,,,,,,,,,,,,,,,,,,,,,,,,,,,,,-77.8862,7.69058,-2.03851,88.2786,105.097,53.7478,,,
1719851573476177925,,,,,,,,,,,,,,,,,,,,,,,,,,374.881,-1102.8,1737.85,,,,,,,,,,,,,,
1719851573476238994,,,,,,,,,,,,,,,,,,,,,,,,,,,,,0.0641888,0.607922,0.386724,0.690475,,,,,,,,,,
1719851573476315815,,,,,,,,,,,,,,,,,,,,,,,,,,,,,,,,,239.719,,,,,,,,,
1719851573477339031,,,,,,,,,,,,,,,,,,,,,,,,,,374.881,-1102.8,1737.85,,,,,,,,,,,,,,
1719851573478552962,,,,,,,,,,,,,,,,,,,,,,,,,,,,,0.0641888,0.607922,0.386724,0.690475,,,,,,,,,,
1719851573478677310,,,,,,,,,,,,,,,,,,,,,,,,,,,,,,,,,239.719,,,,,,,,,
1719851573478882509,,,,,,,,,,,,,,,,,,,,,,,,,,,,,,,,,,-77.8862,7.69058,-2.03851,88.2786,105.097,53.7478,,,
1719851573479866702,,,,,,,,,,,,,,,,,,,,,,,,,,375.038,-1101.88,1738.12,,,,,,,,,,,,,,
1719851573479914748,,,,,,,,,,,,,,,,,,,,,,,,,,,,,0.0641968,0.607928,0.386733,0.690464,,,,,,,,,,
1719851573479995225,,,,,,,,,,,,,,,,,,,,,,,,,,,,,,,,,239.719,,,,,,,,,
1719851573483947618,,,,,,,,,,,,,,,,,,,,,,,,,,375.197,-1100.95,1738.37,,,,,,,,,,,,,,
1719851573483983070,,,,,,,,,,,,,,,,,,,,,,,,,,,,,0.0641933,0.607939,0.386738,0.690451,,,,,,,,,,
1719851573484202790,,,,,,,,,,,,,,,,,,,,,,,,,,,,,,,,,,-77.8696,7.63633,-2.04903,88.2794,105.08,53.7577,,,
1719851573486622849,,,,,,,,,,,,,,,,,,,,,,,,,,375.349,-1100.03,1738.63,,,,,,,,,,,,,,
1719851573486669358,,,,,,,,,,,,,,,,,,,,,,,,,,,,,0.0641949,0.607946,0.386741,0.690443,,,,,,,,,,
1719851573487675593,,,,,,,,,,,,,,,,,,,,,,,,,,,,,,,,,239.719,,,,,,,,,
1719851573487842038,,,,,,,,,,,,,,,,,,,,,,,,,,,,,,,,,,-77.8362,7.52687,-2.06866,88.2803,105.047,53.7784,,,
1719851573489214763,,,,,,,,,,,,,,,,,,,,,,,,,,375.349,-1100.03,1738.63,,,,,,,,,,,,,,
1719851573489293436,,,,,,,,,,,,,,,,,,,,,,,,,,,,,0.0641949,0.607946,0.386741,0.690443,,,,,,,,,,
1719851573489498672,,,,,,,,,,,,,,,,,,,,,,,,,,,,,,,,,,-77.8362,7.52687,-2.06866,88.2803,105.047,53.7784,,,
1719851573490652645,,,,,,,,,,,,,,,,,,,,,,,,,,375.499,-1099.11,1738.89,,,,,,,,,,,,,,
1719851573490698628,,,,,,,,,,,,,,,,,,,,,,,,,,,,,0.0641948,0.607956,0.386743,0.690433,,,,,,,,,,
1719851573490803134,,,,,,,,,,,,,,,,,,,,,,,,,,,,,,,,,239.719,,,,,,,,,
1719851573491036535,,,,,,,,,,,,,,,,,,,,,,,,,,,,,,,,,,-77.8198,7.47246,-2.07827,88.2807,105.031,53.7887,,,
1719851573491822997,,,,,,,,,,,,,,,,,,,,,,,,,,375.499,-1099.11,1738.89,,,,,,,,,,,,,,
1719851573491869745,,,,,,,,,,,,,,,,,,,,,,,,,,,,,0.0641948,0.607956,0.386743,0.690433,,,,,,,,,,
1719851573491950215,,,,,,,,,,,,,,,,,,,,,,,,,,,,,,,,,239.719,,,,,,,,,
1719851573495069148,,,,,,,,,,,,,,,,,,,,,,,,,,375.499,-1099.11,1738.89,,,,,,,,,,,,,,
1719851573495102814,,,,,,,,,,,,,,,,,,,,,,,,,,,,,0.0641948,0.607956,0.386743,0.690433,,,,,,,,,,
1719851573495186022,,,,,,,,,,,,,,,,,,,,,,,,,,,,,,,,,239.719,,,,,,,,,
1719851573495380590,,,,,,,,,,,,,,,,,,,,,,,,,,,,,,,,,,-77.8198,7.47246,-2.07827,88.2807,105.031,53.7887,,,
1719851573497494249,,,,,,,,,,,,,,,,,,,,,,,,,,375.661,-1098.18,1739.13,,,,,,,,,,,,,,
1719851573498702478,,,,,,,,,,,,,,,,,,,,,,,,,,,,,0.0641829,0.607969,0.386742,0.690424,,,,,,,,,,
1719851573498731976,,,,,,,,,,,,,,,,,,,,,,,,,,,,,,,,,239.719,,,,,,,,,
1719851573498948375,,,,,,,,,,,,,,,,,,,,,,,,,,,,,,,,,,-77.8028,7.41804,-2.08737,88.2809,105.015,53.7996,,,
1719851573501334241,,,,,,,,,,,,,,,,,,,,,,,,,,375.817,-1097.26,1739.37,,,,,,,,,,,,,,
1719851573501380180,,,,,,,,,,,,,,,,,,,,,,,,,,,,,0.0641788,0.607983,0.386745,0.69041,,,,,,,,,,
1719851573501561742,,,,,,,,,,,,,,,,,,,,,,,,,,,,,,,,,,-77.786,7.36342,-2.09606,88.2805,104.998,53.8093,,,
1719851573503605064,,,,,,,,,,,,,,,,,,,,,,,,,,375.972,-1096.33,1739.61,,,,,,,,,,,,,,
1719851573503664681,,,,,,,,,,,,,,,,,,,,,,,,,,,,,0.0641732,0.607991,0.386743,0.690404,,,,,,,,,,
1719851573503709655,,,,,,,,,,,,,,,,,,,,,,,,,,,,,,,,,239.719,,,,,,,,,
1719851573503919186,,,,,,,,,,,,,,,,,,,,,,,,,,,,,,,,,,-77.7692,7.30863,-2.10512,88.2814,104.981,53.8197,,,
1719851573505265291,,,,,,,,,,,,,,,,,,,,,,,,,,375.972,-1096.33,1739.61,,,,,,,,,,,,,,
1719851573505308194,,,,,,,,,,,,,,,,,,,,,,,,,,,,,0.0641732,0.607991,0.386743,0.690404,,,,,,,,,,
1719851573505494386,,,,,,,,,,,,,,,,,,,,,,,,,,,,,,,,,,-77.7692,7.30863,-2.10512,88.2814,104.981,53.8197,,,
1719851573506790582,,,,,,,,,,,,,,,,,,,,,,,,,,376.137,-1095.41,1739.85,,,,,,,,,,,,,,
1719851573506837412,,,,,,,,,,,,,,,,,,,,,,,,,,,,,0.0641679,0.608003,0.386748,0.690392,,,,,,,,,,
1719851573506952514,,,,,,,,,,,,,,,,,,,,,,,,,,,,,,,,,239.719,,,,,,,,,
1719851573507144238,,,,,,,,,,,,,,,,,,,,,,,,,,,,,,,,,,-77.752,7.25434,-2.1141,88.2812,104.965,53.8295,,,
1719851573509378052,,,,,,,,,,,,,,,,,,,,,,,,,,376.137,-1095.41,1739.85,,,,,,,,,,,,,,
1719851573509644821,,,,,,,,,,,,,,,,,,,,,,,,,,,,,0.0641679,0.608003,0.386748,0.690392,,,,,,,,,,
1719851573510113899,,,,,,,,,,,,,,,,,,,,,,,,,,,,,,,,,239.719,,,,,,,,,
1719851573510276789,,,,,,,,,,,,,,,,,,,,,,,,,,,,,,,,,,-77.752,7.25434,-2.1141,88.2812,104.965,53.8295,,,
1719851573512353125,,,,,,,,,,,,,,,,,,,,,,,,,,376.291,-1094.49,1740.09,,,,,,,,,,,,,,
1719851573512422546,,,,,,,,,,,,,,,,,,,,,,,,,,,,,0.0641623,0.608013,0.386751,0.690382,,,,,,,,,,
1719851573512623494,,,,,,,,,,,,,,,,,,,,,,,,,,,,,,,,,,-77.7353,7.19992,-2.1232,88.2814,104.948,53.8397,,,
1719851573515986523,,,,,,,,,,,,,,,,,,,,,,,,,,376.457,-1093.57,1740.33,,,,,,,,,,,,,,
1719851573516034043,,,,,,,,,,,,,,,,,,,,,,,,,,,,,0.0641555,0.608023,0.386752,0.690373,,,,,,,,,,
1719851573516118997,,,,,,,,,,,,,,,,,,,,,,,,,,,,,,,,,239.719,,,,,,,,,
1719851573517042302,,,,,,,,,,,,,,,,,,,,,,,,,,376.457,-1093.57,1740.33,,,,,,,,,,,,,,
1719851573517089622,,,,,,,,,,,,,,,,,,,,,,,,,,,,,0.0641555,0.608023,0.386752,0.690373,,,,,,,,,,
1719851573517300345,,,,,,,,,,,,,,,,,,,,,,,,,,,,,,,,,,-77.718,7.14576,-2.13214,88.2818,104.932,53.8499,,,
1719851573519291674,,,,,,,,,,,,,,,,,,,,,,,,,,376.457,-1093.57,1740.33,,,,,,,,,,,,,,
1719851573519355033,,,,,,,,,,,,,,,,,,,,,,,,,,,,,0.0641555,0.608023,0.386752,0.690373,,,,,,,,,,
1719851573519553532,,,,,,,,,,,,,,,,,,,,,,,,,,,,,,,,,,-77.718,7.14576,-2.13214,88.2818,104.932,53.8499,,,
1719851573521696884,,,,,,,,,,,,,,,,,,,,,,,,,,376.617,-1092.65,1740.57,,,,,,,,,,,,,,
1719851573521742925,,,,,,,,,,,,,,,,,,,,,,,,,,,,,0.064154,0.608031,0.386758,0.690363,,,,,,,,,,
1719851573522208834,,,,,,,,,,,,,,,,,,,,,,,,,,,,,,,,,239.719,,,,,,,,,
1719851573522379725,,,,,,,,,,,,,,,,,,,,,,,,,,,,,,,,,,-77.7009,7.09151,-2.14162,88.2821,104.915,53.8598,,,
1719851573524345117,,,,,,,,,,,,,,,,,,,,,,,,,,376.784,-1091.72,1740.82,,,,,,,,,,,,,,
1719851573524388172,,,,,,,,,,,,,,,,,,,,,,,,,,,,,0.0641526,0.608036,0.386762,0.690357,,,,,,,,,,
1719851573524483615,,,,,,,,,,,,,,,,,,,,,,,,,,,,,,,,,239.719,,,,,,,,,
1719851573524681361,,,,,,,,,,,,,,,,,,,,,,,,,,,,,,,,,,-77.6834,7.03713,-2.15097,88.283,104.898,53.8697,,,
1719851573526397970,,,,,,,,,,,,,,,,,,,,,,,,,,376.784,-1091.72,1740.82,,,,,,,,,,,,,,
1719851573526443854,,,,,,,,,,,,,,,,,,,,,,,,,,,,,0.0641526,0.608036,0.386762,0.690357,,,,,,,,,,
1719851573526633645,,,,,,,,,,,,,,,,,,,,,,,,,,,,,,,,,,-77.6834,7.03713,-2.15097,88.283,104.898,53.8697,,,
1719851573530316720,,,,,,,,,,,,,,,,,,,,,,,,,,376.945,-1090.81,1741.06,,,,,,,,,,,,,,
1719851573530349137,,,,,,,,,,,,,,,,,,,,,,,,,,,,,0.0641457,0.60805,0.38677,0.69034,,,,,,,,,,
1719851573530554242,,,,,,,,,,,,,,,,,,,,,,,,,,,,,,,,,,-77.6663,6.98326,-2.1605,88.2823,104.882,53.8799,,,
1719851573531457239,,,,,,,,,,,,,,,,,,,,,,,,,,377.097,-1089.89,1741.3,,,,,,,,,,,,,,
1719851573531520572,,,,,,,,,,,,,,,,,,,,,,,,,,,,,0.0641579,0.608052,0.386779,0.690332,,,,,,,,,,
1719851573531763807,,,,,,,,,,,,,,,,,,,,,,,,,,,,,,,,,,-77.6496,6.92889,-2.1701,88.2832,104.865,53.8885,,,
1719851573532728851,,,,,,,,,,,,,,,,,,,,,,,,,,,,,0.0641579,0.608052,0.386779,0.690332,,,,,,,,,,
1719851573532766319,,,,,,,,,,,,,,,,,,,,,,,,,,377.097,-1089.89,1741.3,,,,,,,,,,,,,,
1719851573532825388,,,,,,,,,,,,,,,,,,,,,,,,,,,,,,,,,,-77.6496,6.92889,-2.1701,88.2832,104.865,53.8885,,,
1719851573535643560,,,,,,,,,,,,,,,,,,,,,,,,,,,,,0.0641536,0.608066,0.386783,0.690318,,,,,,,,,,
1719851573535678326,,,,,,,,,,,,,,,,,,,,,,,,,,377.257,-1088.97,1741.55,,,,,,,,,,,,,,
1719851573536942433,,,,,,,,,,,,,,,,,,,,,,,,,,,,,,,,,,-77.6324,6.87493,-2.18017,88.283,104.848,53.8994,,,
1719851573539449025,,,,,,,,,,,,,,,,,,,,,,,,,,,,,,,,,239.719,,,,,,,,,
1719851573539482040,,,,,,,,,,,,,,,,,,,,,,,,,,377.257,-1088.97,1741.55,,,,,,,,,,,,,,
1719851573543242703,,,,,,,,,,,,,,,,,,,,,,,,,,,,,0.0641521,0.60807,0.386793,0.690309,,,,,,,,,,
1719851573543279563,,,,,,,,,,,,,,,,,,,,,,,,,,377.415,-1088.04,1741.8,,,,,,,,,,,,,,
1719851573543336407,,,,,,,,,,,,,,,,,,,,,,,,,,,,,,,,,239.719,,,,,,,,,
1719851573543630546,,,,,,,,,,,,,,,,,,,,,,,,,,,,,,,,,,-77.6153,6.82089,-2.18986,88.2835,104.832,53.909,,,
1719851573544668637,,,,,,,,,,,,,,,,,,,,,,,,,,,,,0.0641513,0.608077,0.386798,0.6903,,,,,,,,,,
1719851573544705170,,,,,,,,,,,,,,,,,,,,,,,,,,,,,,,,,239.719,,,,,,,,,
1719851573544713334,,,,,,,,,,,,,,,,,,,,,,,,,,377.569,-1087.12,1742.04,,,,,,,,,,,,,,
1719851573545629586,,,,,,,,,,,,,,,,,,,,,,,,,,,,,0.0641513,0.608077,0.386798,0.6903,,,,,,,,,,
1719851573545665080,,,,,,,,,,,,,,,,,,,,,,,,,,377.569,-1087.12,1742.04,,,,,,,,,,,,,,
1719851573545722859,,,,,,,,,,,,,,,,,,,,,,,,,,,,,,,,,,-77.5984,6.76669,-2.1995,88.2841,104.815,53.9192,,,
1719851573547157130,,,,,,,,,,,,,,,,,,,,,,,,,,,,,0.0641417,0.608087,0.386802,0.69029,,,,,,,,,,
1719851573547187059,,,,,,,,,,,,,,,,,,,,,,,,,,377.725,-1086.21,1742.28,,,,,,,,,,,,,,
1719851573547894104,,,,,,,,,,,,,,,,,,,,,,,,,,,,,,,,,,-77.5984,6.76669,-2.1995,88.2841,104.815,53.9192,,,
1719851573549278559,,,,,,,,,,,,,,,,,,,,,,,,,,,,,0.0641417,0.608087,0.386802,0.69029,,,,,,,,,,
1719851573549305735,,,,,,,,,,,,,,,,,,,,,,,,,,,,,,,,,239.719,,,,,,,,,
1719851573549314068,,,,,,,,,,,,,,,,,,,,,,,,,,377.725,-1086.21,1742.28,,,,,,,,,,,,,,
1719851573553384278,,,,,,,,,,,,,,,,,,,,,,,,,,,,,0.0641417,0.608087,0.386802,0.69029,,,,,,,,,,
1719851573553416327,,,,,,,,,,,,,,,,,,,,,,,,,,377.725,-1086.21,1742.28,,,,,,,,,,,,,,
1719851573553476098,,,,,,,,,,,,,,,,,,,,,,,,,,,,,,,,,,-77.5814,6.71294,-2.20932,88.2844,104.799,53.9303,,,
1719851573556601642,,,,,,,,,,,,,,,,,,,,,,,,,,,,,0.0641417,0.608105,0.386813,0.690268,,,,,,,,,,
1719851573556633535,,,,,,,,,,,,,,,,,,,,,,,,,,378.024,-1084.35,1742.76,,,,,,,,,,,,,,
1719851573556724248,,,,,,,,,,,,,,,,,,,,,,,,,,,,,,,,,,-77.5477,6.60386,-2.22853,88.2849,104.766,53.9501,,,
1719851573557640234,,,,,,,,,,,,,,,,,,,,,,,,,,,,,0.0641417,0.608105,0.386813,0.690268,,,,,,,,,,
1719851573557672429,,,,,,,,,,,,,,,,,,,,,,,,,,378.024,-1084.35,1742.76,,,,,,,,,,,,,,
1719851573557727387,,,,,,,,,,,,,,,,,,,,,,,,,,,,,,,,,,-77.5477,6.60386,-2.22853,88.2849,104.766,53.9501,,,
1719851573559079993,,,,,,,,,,,,,,,,,,,,,,,,,,,,,0.0641415,0.608116,0.386816,0.690256,,,,,,,,,,
1719851573559114682,,,,,,,,,,,,,,,,,,,,,,,,,,378.024,-1084.35,1742.76,,,,,,,,,,,,,,
1719851573559174687,,,,,,,,,,,,,,,,,,,,,,,,,,,,,,,,,,-77.5477,6.60386,-2.22853,88.2849,104.766,53.9501,,,
1719851573561415884,,,,,,,,,,,,,,,,,,,,,,,,,,,,,,,,,239.719,,,,,,,,,
1719851573561449990,,,,,,,,,,,,,,,,,,,,,,,,,,378.176,-1083.43,1743.0,,,,,,,,,,,,,,
1719851573565039318,,,,,,,,,,,,,,,,,,,,,,,,,,,,,0.0641347,0.608127,0.386815,0.690247,,,,,,,,,,
1719851573565076071,,,,,,,,,,,,,,,,,,,,,,,,,,378.321,-1082.5,1743.24,,,,,,,,,,,,,,
1719851573565394523,,,,,,,,,,,,,,,,,,,,,,,,,,,,,,,,,,-77.5141,6.49482,-2.24769,88.2853,104.733,53.9713,,,
1719851573568311081,,,,,,,,,,,,,,,,,,,,,,,,,,,,,0.0641248,0.608142,0.386824,0.690231,,,,,,,,,,
1719851573568346250,,,,,,,,,,,,,,,,,,,,,,,,,,378.473,-1081.57,1743.47,,,,,,,,,,,,,,
1719851573569414144,,,,,,,,,,,,,,,,,,,,,,,,,,,,,,,,,,-77.4969,6.43994,-2.25705,88.2844,104.716,53.9815,,,
1719851573570213252,,,,,,,,,,,,,,,,,,,,,,,,,,378.473,-1081.57,1743.47,,,,,,,,,,,,,,
1719851573570613733,,,,,,,,,,,,,,,,,,,,,,,,,,,,,,,,,,-77.4969,6.43994,-2.25705,88.2844,104.716,53.9815,,,
1719851573571514139,,,,,,,,,,,,,,,,,,,,,,,,,,378.473,-1081.57,1743.47,,,,,,,,,,,,,,
1719851573571812711,,,,,,,,,,,,,,,,,,,,,,,,,,,,,,,,,,-77.4969,6.43994,-2.25705,88.2844,104.716,53.9815,,,
1719851573572611693,,,,,,,,,,,,,,,,,,,,,,,,,,378.628,-1080.64,1743.7,,,,,,,,,,,,,,
1719851573572875726,,,,,,,,,,,,,,,,,,,,,,,,,,,,,,,,,,-77.4797,6.38544,-2.26594,88.2858,104.7,53.9918,,,
1719851573576338919,,,,,,,,,,,,,,,,,,,,,,,,,,378.628,-1080.64,1743.7,,,,,,,,,,,,,,
1719851573576674529,,,,,,,,,,,,,,,,,,,,,,,,,,,,,,,,,,-77.4797,6.38544,-2.26594,88.2858,104.7,53.9918,,,
1719851573579215165,,,,,,,,,,,,,,,,,,,,,,,,,,378.781,-1079.7,1743.94,,,,,,,,,,,,,,
1719851573581104865,,,,,,,,,,,,,,,,,,,,,,,,,,,,,,,,,239.872,,,,,,,,,
1719851573583781159,,,,,,,,,,,,,,,,,,,,,,,,,,379.078,-1077.84,1744.41,,,,,,,,,,,,,,
1719851573584115251,,,,,,,,,,,,,,,,,,,,,,,,,,,,,,,,,,-77.4454,6.27507,-2.28503,88.2862,104.667,54.0116,,,
1719851573584867818,,,,,,,,,,,,,,,,,,,,,,,,,,379.078,-1077.84,1744.41,,,,,,,,,,,,,,
1719851573584943312,,,,,,,,,,,,,,,,,,,,,,,,,,,,,0.0641106,0.608164,0.386837,0.690205,,,,,,,,,,
1719851573585897280,,,,,,,,,,,,,,,,,,,,,,,,,,379.078,-1077.84,1744.41,,,,,,,,,,,,,,
1719851573586238063,,,,,,,,,,,,,,,,,,,,,,,,,,,,,,,,,,-77.4284,6.22053,-2.29426,88.2876,104.65,54.0219,,,
1719851573588327138,,,,,,,,,,,,,,,,,,,,,,,,,,379.078,-1077.84,1744.41,,,,,,,,,,,,,,
1719851573588626437,,,,,,,,,,,,,,,,,,,,,,,,,,,,,,,,,,-77.4284,6.22053,-2.29426,88.2876,104.65,54.0219,,,
1719851573591850885,,,,,,,,,,,,,,,,,,,,,,,,,,,,,,,,,239.872,,,,,,,,,
1719851573591879614,,,,,,,,,,,,,,,,,,,,,,,,,,379.216,-1076.91,1744.63,,,,,,,,,,,,,,
1719851573593737468,,,,,,,,,,,,,,,,,,,,,,,,,,379.365,-1075.97,1744.88,,,,,,,,,,,,,,
1719851573594112272,,,,,,,,,,,,,,,,,,,,,,,,,,,,,,,,,,-77.3947,6.11019,-2.31351,88.2881,104.617,54.0421,,,
1719851573596184383,,,,,,,,,,,,,,,,,,,,,,,,,,379.508,-1075.04,1745.1,,,,,,,,,,,,,,
1719851573596544517,,,,,,,,,,,,,,,,,,,,,,,,,,,,,,,,,,-77.3779,6.05565,-2.32278,88.2874,104.6,54.052,,,
1719851573597240171,,,,,,,,,,,,,,,,,,,,,,,,,,,,,,,,,239.872,,,,,,,,,
1719851573597267864,,,,,,,,,,,,,,,,,,,,,,,,,,379.508,-1075.04,1745.1,,,,,,,,,,,,,,
1719851573598257514,,,,,,,,,,,,,,,,,,,,,,,,,,379.508,-1075.04,1745.1,,,,,,,,,,,,,,
1719851573598571571,,,,,,,,,,,,,,,,,,,,,,,,,,,,,,,,,,-77.3779,6.05565,-2.32278,88.2874,104.6,54.052,,,
1719851573600743923,,,,,,,,,,,,,,,,,,,,,,,,,,379.65,-1074.12,1745.33,,,,,,,,,,,,,,
1719851573601873754,,,,,,,,,,,,,,,,,,,,,,,,,,,,,0.0641104,0.608206,0.386852,0.69016,,,,,,,,,,
1719851573601902895,,,,,,,,,,,,,,,,,,,,,,,,,,,,,,,,,239.872,,,,,,,,,
1719851573604644101,,,,,,,,,,,,,,,,,,,,,,,,,,,,,0.0641119,0.608216,0.386858,0.690148,,,,,,,,,,
1719851573604677859,,,,,,,,,,,,,,,,,,,,,,,,,,,,,,,,,239.872,,,,,,,,,
1719851573604687310,,,,,,,,,,,,,,,,,,,,,,,,,,379.79,-1073.18,1745.56,,,,,,,,,,,,,,
1719851573609048518,,,,,,,,,,,,,,,,,,,,,,,,,,,,,0.0641149,0.60822,0.386871,0.690136,,,,,,,,,,
1719851573609081146,,,,,,,,,,,,,,,,,,,,,,,,,,,,,,,,,239.872,,,,,,,,,
1719851573609090611,,,,,,,,,,,,,,,,,,,,,,,,,,379.933,-1072.25,1745.8,,,,,,,,,,,,,,
1719851573610147441,,,,,,,,,,,,,,,,,,,,,,,,,,,,,0.0641149,0.60822,0.386871,0.690136,,,,,,,,,,
1719851573610185139,,,,,,,,,,,,,,,,,,,,,,,,,,379.933,-1072.25,1745.8,,,,,,,,,,,,,,
1719851573610324993,,,,,,,,,,,,,,,,,,,,,,,,,,,,,,,,,,-77.3274,5.89111,-2.35197,88.2881,104.55,54.0811,,,
1719851573611574694,,,,,,,,,,,,,,,,,,,,,,,,,,379.933,-1072.25,1745.8,,,,,,,,,,,,,,
1719851573611660698,,,,,,,,,,,,,,,,,,,,,,,,,,,,,,,,,,-77.3274,5.89111,-2.35197,88.2881,104.55,54.0811,,,
1719851573612466302,,,,,,,,,,,,,,,,,,,,,,,,,,380.074,-1071.32,1746.03,,,,,,,,,,,,,,
1719851573612763104,,,,,,,,,,,,,,,,,,,,,,,,,,,,,0.0641112,0.608229,0.386873,0.690127,,,,,,,,,,
1719851573612787386,,,,,,,,,,,,,,,,,,,,,,,,,,,,,,,,,239.872,,,,,,,,,
1719851573612857382,,,,,,,,,,,,,,,,,,,,,,,,,,,,,,,,,,-77.3106,5.83657,-2.36179,88.2885,104.534,54.0918,,,
1719851573616426206,,,,,,,,,,,,,,,,,,,,,,,,,,380.218,-1070.39,1746.26,,,,,,,,,,,,,,
1719851573616492303,,,,,,,,,,,,,,,,,,,,,,,,,,,,,0.0641155,0.608236,0.386881,0.690117,,,,,,,,,,
1719851573616596693,,,,,,,,,,,,,,,,,,,,,,,,,,,,,,,,,,-77.2936,5.78207,-2.37164,88.2888,104.517,54.1014,,,
1719851573620973345,,,,,,,,,,,,,,,,,,,,,,,,,,380.362,-1069.46,1746.49,,,,,,,,,,,,,,
1719851573621028001,,,,,,,,,,,,,,,,,,,,,,,,,,,,,0.0641091,0.608245,0.386883,0.690108,,,,,,,,,,
1719851573621146074,,,,,,,,,,,,,,,,,,,,,,,,,,,,,,,,,,-77.2766,5.72736,-2.38112,88.2893,104.501,54.1121,,,
1719851573623689773,,,,,,,,,,,,,,,,,,,,,,,,,,380.507,-1068.53,1746.72,,,,,,,,,,,,,,
1719851573623731355,,,,,,,,,,,,,,,,,,,,,,,,,,,,,0.0641059,0.608251,0.386895,0.690097,,,,,,,,,,
1719851573623768251,,,,,,,,,,,,,,,,,,,,,,,,,,,,,,,,,239.872,,,,,,,,,
1719851573623969752,,,,,,,,,,,,,,,,,,,,,,,,,,,,,,,,,,-77.2595,5.67278,-2.39081,88.2893,104.485,54.1217,,,
1719851573625356549,,,,,,,,,,,,,,,,,,,,,,,,,,380.507,-1068.53,1746.72,,,,,,,,,,,,,,
1719851573625417153,,,,,,,,,,,,,,,,,,,,,,,,,,,,,0.0641059,0.608251,0.386895,0.690097,,,,,,,,,,
1719851573625533170,,,,,,,,,,,,,,,,,,,,,,,,,,,,,,,,,,-77.2595,5.67278,-2.39081,88.2893,104.485,54.1217,,,
1719851573626443446,,,,,,,,,,,,,,,,,,,,,,,,,,380.507,-1068.53,1746.72,,,,,,,,,,,,,,
1719851573626499681,,,,,,,,,,,,,,,,,,,,,,,,,,,,,0.0641059,0.608251,0.386895,0.690097,,,,,,,,,,
1719851573626619305,,,,,,,,,,,,,,,,,,,,,,,,,,,,,,,,,,-77.2595,5.67278,-2.39081,88.2893,104.485,54.1217,,,
1719851573629353043,,,,,,,,,,,,,,,,,,,,,,,,,,380.651,-1067.6,1746.94,,,,,,,,,,,,,,
1719851573629424258,,,,,,,,,,,,,,,,,,,,,,,,,,,,,0.0641057,0.608259,0.386898,0.690088,,,,,,,,,,
1719851573629567041,,,,,,,,,,,,,,,,,,,,,,,,,,,,,,,,,,-77.2424,5.61836,-2.40054,88.2897,104.468,54.1321,,,
1719851573631333891,,,,,,,,,,,,,,,,,,,,,,,,,,380.651,-1067.6,1746.94,,,,,,,,,,,,,,
1719851573631402559,,,,,,,,,,,,,,,,,,,,,,,,,,,,,0.0641057,0.608259,0.386898,0.690088,,,,,,,,,,
1719851573631453292,,,,,,,,,,,,,,,,,,,,,,,,,,,,,,,,,239.872,,,,,,,,,
1719851573634413589,,,,,,,,,,,,,,,,,,,,,,,,,,380.798,-1066.67,1747.17,,,,,,,,,,,,,,
1719851573635008593,,,,,,,,,,,,,,,,,,,,,,,,,,,,,0.064098,0.608274,0.3869,0.690074,,,,,,,,,,
1719851573635084331,,,,,,,,,,,,,,,,,,,,,,,,,,,,,,,,,239.872,,,,,,,,,
1719851573635247195,,,,,,,,,,,,,,,,,,,,,,,,,,,,,,,,,,-77.2252,5.56382,-2.41019,88.2893,104.451,54.143,,,
1719851573636253898,,,,,,,,,,,,,,,,,,,,,,,,,,380.937,-1065.74,1747.39,,,,,,,,,,,,,,
1719851573636346182,,,,,,,,,,,,,,,,,,,,,,,,,,,,,0.0641033,0.60828,0.386908,0.690064,,,,,,,,,,
1719851573636374627,,,,,,,,,,,,,,,,,,,,,,,,,,,,,,,,,239.872,,,,,,,,,
1719851573636562653,,,,,,,,,,,,,,,,,,,,,,,,,,,,,,,,,,-77.2084,5.50937,-2.4195,88.2895,104.434,54.152,,,
1719851573637363030,,,,,,,,,,,,,,,,,,,,,,,,,,380.937,-1065.74,1747.39,,,,,,,,,,,,,,
1719851573637425108,,,,,,,,,,,,,,,,,,,,,,,,,,,,,0.0641033,0.60828,0.386908,0.690064,,,,,,,,,,
1719851573637573610,,,,,,,,,,,,,,,,,,,,,,,,,,,,,,,,,,-77.2084,5.50937,-2.4195,88.2895,104.434,54.152,,,
1719851573638341811,,,,,,,,,,,,,,,,,,,,,,,,,,380.937,-1065.74,1747.39,,,,,,,,,,,,,,
1719851573638415722,,,,,,,,,,,,,,,,,,,,,,,,,,,,,0.0641033,0.60828,0.386908,0.690064,,,,,,,,,,
1719851573638476087,,,,,,,,,,,,,,,,,,,,,,,,,,,,,,,,,239.872,,,,,,,,,
1719851573640792365,,,,,,,,,,,,,,,,,,,,,,,,,,,,,,,,,,-77.2084,5.50937,-2.4195,88.2895,104.434,54.152,,,
1719851573643601490,,,,,,,,,,,,,,,,,,,,,,,,,,381.086,-1064.82,1747.61,,,,,,,,,,,,,,
1719851573643675207,,,,,,,,,,,,,,,,,,,,,,,,,,,,,0.0640998,0.608286,0.38691,0.690058,,,,,,,,,,
1719851573647865702,,,,,,,,,,,,,,,,,,,,,,,,,,,,,0.0640986,0.608296,0.386911,0.690049,,,,,,,,,,
1719851573647904500,,,,,,,,,,,,,,,,,,,,,,,,,,381.223,-1063.89,1747.83,,,,,,,,,,,,,,
1719851573648074091,,,,,,,,,,,,,,,,,,,,,,,,,,,,,,,,,239.872,,,,,,,,,
1719851573650109917,,,,,,,,,,,,,,,,,,,,,,,,,,,,,0.0640959,0.6083,0.386915,0.690043,,,,,,,,,,
1719851573650125331,,,,,,,,,,,,,,,,,,,,,,,,,,381.364,-1062.96,1748.05,,,,,,,,,,,,,,
1719851573650388949,,,,,,,,,,,,,,,,,,,,,,,,,,,,,,,,,,-77.1572,5.34604,-2.44752,88.2914,104.384,54.1824,,,
1719851573651539715,,,,,,,,,,,,,,,,,,,,,,,,,,,,,0.0640959,0.6083,0.386915,0.690043,,,,,,,,,,
1719851573651554810,,,,,,,,,,,,,,,,,,,,,,,,,,,,,,,,,239.872,,,,,,,,,
1719851573651566759,,,,,,,,,,,,,,,,,,,,,,,,,,381.364,-1062.96,1748.05,,,,,,,,,,,,,,
1719851573651834432,,,,,,,,,,,,,,,,,,,,,,,,,,,,,,,,,,-77.1572,5.34604,-2.44752,88.2914,104.384,54.1824,,,
1719851573652693438,,,,,,,,,,,,,,,,,,,,,,,,,,,,,0.0640901,0.608312,0.386914,0.690034,,,,,,,,,,
1719851573652707308,,,,,,,,,,,,,,,,,,,,,,,,,,381.503,-1062.04,1748.26,,,,,,,,,,,,,,
1719851573652985949,,,,,,,,,,,,,,,,,,,,,,,,,,,,,,,,,,-77.1402,5.29154,-2.45675,88.2915,104.367,54.1931,,,
1719851573654334389,,,,,,,,,,,,,,,,,,,,,,,,,,,,,0.0640901,0.608312,0.386914,0.690034,,,,,,,,,,
1719851573654349353,,,,,,,,,,,,,,,,,,,,,,,,,,381.503,-1062.04,1748.26,,,,,,,,,,,,,,
1719851573654588642,,,,,,,,,,,,,,,,,,,,,,,,,,,,,,,,,,-77.1402,5.29154,-2.45675,88.2915,104.367,54.1931,,,
1719851573657838769,,,,,,,,,,,,,,,,,,,,,,,,,,,,,0.0640948,0.608319,0.386917,0.690026,,,,,,,,,,
1719851573657852886,,,,,,,,,,,,,,,,,,,,,,,,,,381.637,-1061.11,1748.48,,,,,,,,,,,,,,
1719851573657978384,,,,,,,,,,,,,,,,,,,,,,,,,,,,,,,,,,-77.1402,5.29154,-2.45675,88.2915,104.367,54.1931,,,
1719851573660625138,,,,,,,,,,,,,,,,,,,,,,,,,,,,,0.0640929,0.608328,0.386922,0.690015,,,,,,,,,,
1719851573660640056,,,,,,,,,,,,,,,,,,,,,,,,,,381.777,-1060.18,1748.69,,,,,,,,,,,,,,
1719851573662051372,,,,,,,,,,,,,,,,,,,,,,,,,,,,,,,,,,-77.1064,5.18258,-2.47542,88.292,104.334,54.2124,,,
1719851573662683672,,,,,,,,,,,,,,,,,,,,,,,,,,,,,0.0640929,0.608328,0.386922,0.690015,,,,,,,,,,
1719851573662697562,,,,,,,,,,,,,,,,,,,,,,,,,,,,,,,,,239.872,,,,,,,,,
1719851573662709436,,,,,,,,,,,,,,,,,,,,,,,,,,381.777,-1060.18,1748.69,,,,,,,,,,,,,,
1719851573662984320,,,,,,,,,,,,,,,,,,,,,,,,,,,,,,,,,,-77.1064,5.18258,-2.47542,88.292,104.334,54.2124,,,
1719851573665000768,,,,,,,,,,,,,,,,,,,,,,,,,,,,,0.0640825,0.608342,0.386919,0.690005,,,,,,,,,,
1719851573665014558,,,,,,,,,,,,,,,,,,,,,,,,,,,,,,,,,239.872,,,,,,,,,
1719851573665025022,,,,,,,,,,,,,,,,,,,,,,,,,,381.912,-1059.25,1748.91,,,,,,,,,,,,,,
1719851573665245929,,,,,,,,,,,,,,,,,,,,,,,,,,,,,,,,,,-77.0896,5.12783,-2.48457,88.292,104.317,54.2234,,,
1719851573666131491,,,,,,,,,,,,,,,,,,,,,,,,,,,,,0.0640825,0.608342,0.386919,0.690005,,,,,,,,,,
1719851573666143710,,,,,,,,,,,,,,,,,,,,,,,,,,,,,,,,,239.872,,,,,,,,,
1719851573666153011,,,,,,,,,,,,,,,,,,,,,,,,,,381.912,-1059.25,1748.91,,,,,,,,,,,,,,
1719851573666355206,,,,,,,,,,,,,,,,,,,,,,,,,,,,,,,,,,-77.0896,5.12783,-2.48457,88.292,104.317,54.2234,,,
1719851573670031406,,,,,,,,,,,,,,,,,,,,,,,,,,,,,0.0640853,0.60835,0.386926,0.689994,,,,,,,,,,
1719851573670044321,,,,,,,,,,,,,,,,,,,,,,,,,,,,,,,,,239.872,,,,,,,,,
1719851573670053978,,,,,,,,,,,,,,,,,,,,,,,,,,382.043,-1058.32,1749.12,,,,,,,,,,,,,,
1719851573672642295,,,,,,,,,,,,,,,,,,,,,,,,,,,,,0.0640766,0.608364,0.386929,0.68998,,,,,,,,,,
1719851573672655183,,,,,,,,,,,,,,,,,,,,,,,,,,,,,,,,,239.872,,,,,,,,,
1719851573672670100,,,,,,,,,,,,,,,,,,,,,,,,,,382.18,-1057.39,1749.34,,,,,,,,,,,,,,
1719851573673511620,,,,,,,,,,,,,,,,,,,,,,,,,,,,,,,,,,-77.0559,5.01854,-2.50369,88.2915,104.284,54.2437,,,
1719851573675640451,,,,,,,,,,,,,,,,,,,,,,,,,,,,,0.0640766,0.608364,0.386929,0.68998,,,,,,,,,,
1719851573675652732,,,,,,,,,,,,,,,,,,,,,,,,,,,,,,,,,239.872,,,,,,,,,
1719851573675663156,,,,,,,,,,,,,,,,,,,,,,,,,,382.18,-1057.39,1749.34,,,,,,,,,,,,,,
1719851573675874630,,,,,,,,,,,,,,,,,,,,,,,,,,,,,,,,,,-77.0559,5.01854,-2.50369,88.2915,104.284,54.2437,,,
1719851573676820612,,,,,,,,,,,,,,,,,,,,,,,,,,,,,0.0640788,0.608365,0.386937,0.689975,,,,,,,,,,
1719851573676835362,,,,,,,,,,,,,,,,,,,,,,,,,,382.317,-1056.45,1749.55,,,,,,,,,,,,,,
1719851573677114167,,,,,,,,,,,,,,,,,,,,,,,,,,,,,,,,,,-77.0387,4.96342,-2.51317,88.2925,104.268,54.2531,,,
1719851573677902408,,,,,,,,,,,,,,,,,,,,,,,,,,,,,0.0640788,0.608365,0.386937,0.689975,,,,,,,,,,
1719851573677917058,,,,,,,,,,,,,,,,,,,,,,,,,,382.317,-1056.45,1749.55,,,,,,,,,,,,,,
1719851573678144654,,,,,,,,,,,,,,,,,,,,,,,,,,,,,,,,,,-77.0387,4.96342,-2.51317,88.2925,104.268,54.2531,,,
1719851573679890978,,,,,,,,,,,,,,,,,,,,,,,,,,382.317,-1056.45,1749.55,,,,,,,,,,,,,,
1719851573680092680,,,,,,,,,,,,,,,,,,,,,,,,,,,,,0.0640788,0.608365,0.386937,0.689975,,,,,,,,,,
1719851573680141993,,,,,,,,,,,,,,,,,,,,,,,,,,,,,,,,,,-77.0387,4.96342,-2.51317,88.2925,104.268,54.2531,,,
1719851573682403467,,,,,,,,,,,,,,,,,,,,,,,,,,382.455,-1055.52,1749.77,,,,,,,,,,,,,,
1719851573682451322,,,,,,,,,,,,,,,,,,,,,,,,,,,,,0.0640736,0.608375,0.38694,0.689965,,,,,,,,,,
1719851573683673527,,,,,,,,,,,,,,,,,,,,,,,,,,,,,,,,,239.872,,,,,,,,,
1719851573683832458,,,,,,,,,,,,,,,,,,,,,,,,,,,,,,,,,,-77.0215,4.90871,-2.52299,88.2927,104.251,54.2639,,,
1719851573686224978,,,,,,,,,,,,,,,,,,,,,,,,,,382.591,-1054.58,1749.99,,,,,,,,,,,,,,
1719851573686297722,,,,,,,,,,,,,,,,,,,,,,,,,,,,,0.0640759,0.608382,0.386949,0.689954,,,,,,,,,,
1719851573689147009,,,,,,,,,,,,,,,,,,,,,,,,,,382.727,-1053.64,1750.21,,,,,,,,,,,,,,
1719851573689224748,,,,,,,,,,,,,,,,,,,,,,,,,,,,,0.0640724,0.608391,0.386954,0.689943,,,,,,,,,,
1719851573689299647,,,,,,,,,,,,,,,,,,,,,,,,,,,,,,,,,239.872,,,,,,,,,
1719851573690219322,,,,,,,,,,,,,,,,,,,,,,,,,,382.727,-1053.64,1750.21,,,,,,,,,,,,,,
1719851573690267995,,,,,,,,,,,,,,,,,,,,,,,,,,,,,0.0640724,0.608391,0.386954,0.689943,,,,,,,,,,
1719851573690470719,,,,,,,,,,,,,,,,,,,,,,,,,,,,,,,,,,-76.9872,4.79871,-2.54253,88.2927,104.218,54.2839,,,
1719851573691884996,,,,,,,,,,,,,,,,,,,,,,,,,,382.727,-1053.64,1750.21,,,,,,,,,,,,,,
1719851573692039259,,,,,,,,,,,,,,,,,,,,,,,,,,,,,,,,,,-76.9872,4.79871,-2.54253,88.2927,104.218,54.2839,,,
1719851573694389479,,,,,,,,,,,,,,,,,,,,,,,,,,382.859,-1052.7,1750.42,,,,,,,,,,,,,,
1719851573694462698,,,,,,,,,,,,,,,,,,,,,,,,,,,,,0.0640644,0.608398,0.386962,0.689933,,,,,,,,,,
1719851573694628524,,,,,,,,,,,,,,,,,,,,,,,,,,,,,,,,,239.872,,,,,,,,,
1719851573694838957,,,,,,,,,,,,,,,,,,,,,,,,,,,,,,,,,,-76.9702,4.74383,-2.5523,88.2929,104.202,54.2944,,,
1719851573696333819,,,,,,,,,,,,,,,,,,,,,,,,,,382.991,-1051.77,1750.64,,,,,,,,,,,,,,
1719851573696383655,,,,,,,,,,,,,,,,,,,,,,,,,,,,,0.0640721,0.608401,0.386968,0.689927,,,,,,,,,,
1719851573696480509,,,,,,,,,,,,,,,,,,,,,,,,,,,,,,,,,239.872,,,,,,,,,
1719851573696671849,,,,,,,,,,,,,,,,,,,,,,,,,,,,,,,,,,-76.9702,4.74383,-2.5523,88.2929,104.202,54.2944,,,
1719851573700825177,,,,,,,,,,,,,,,,,,,,,,,,,,382.991,-1051.77,1750.64,,,,,,,,,,,,,,
1719851573700871849,,,,,,,,,,,,,,,,,,,,,,,,,,,,,0.0640721,0.608401,0.386968,0.689927,,,,,,,,,,
1719851573700949254,,,,,,,,,,,,,,,,,,,,,,,,,,,,,,,,,239.872,,,,,,,,,
1719851573701157948,,,,,,,,,,,,,,,,,,,,,,,,,,,,,,,,,,-76.9532,4.68883,-2.56212,88.2938,104.185,54.3039,,,
1719851573701977258,,,,,,,,,,,,,,,,,,,,,,,,,,383.125,-1050.82,1750.85,,,,,,,,,,,,,,
1719851573702100642,,,,,,,,,,,,,,,,,,,,,,,,,,,,,0.0640667,0.608415,0.386972,0.689912,,,,,,,,,,
1719851573702239378,,,,,,,,,,,,,,,,,,,,,,,,,,,,,,,,,,-76.936,4.63358,-2.57177,88.2932,104.168,54.3145,,,
1719851573703027887,,,,,,,,,,,,,,,,,,,,,,,,,,383.125,-1050.82,1750.85,,,,,,,,,,,,,,
1719851573703077225,,,,,,,,,,,,,,,,,,,,,,,,,,,,,0.0640667,0.608415,0.386972,0.689912,,,,,,,,,,
1719851573703276183,,,,,,,,,,,,,,,,,,,,,,,,,,,,,,,,,,-76.936,4.63358,-2.57177,88.2932,104.168,54.3145,,,
1719851573704414967,,,,,,,,,,,,,,,,,,,,,,,,,,383.25,-1049.89,1751.06,,,,,,,,,,,,,,
1719851573705647180,,,,,,,,,,,,,,,,,,,,,,,,,,,,,0.064067,0.608423,0.386973,0.689905,,,,,,,,,,
1719851573705727732,,,,,,,,,,,,,,,,,,,,,,,,,,,,,,,,,239.872,,,,,,,,,
1719851573708345639,,,,,,,,,,,,,,,,,,,,,,,,,,383.375,-1048.95,1751.28,,,,,,,,,,,,,,
1719851573708420272,,,,,,,,,,,,,,,,,,,,,,,,,,,,,0.0640715,0.608431,0.386978,0.689895,,,,,,,,,,
1719851573708511613,,,,,,,,,,,,,,,,,,,,,,,,,,,,,,,,,239.872,,,,,,,,,
1719851573708690483,,,,,,,,,,,,,,,,,,,,,,,,,,,,,,,,,,-76.9025,4.52346,-2.59135,88.2941,104.134,54.3348,,,
1719851573712966908,,,,,,,,,,,,,,,,,,,,,,,,,,383.375,-1048.95,1751.28,,,,,,,,,,,,,,
1719851573713041459,,,,,,,,,,,,,,,,,,,,,,,,,,,,,0.0640715,0.608431,0.386978,0.689895,,,,,,,,,,
1719851573713237020,,,,,,,,,,,,,,,,,,,,,,,,,,,,,,,,,,-76.9025,4.52346,-2.59135,88.2941,104.134,54.3348,,,
1719851573715774538,,,,,,,,,,,,,,,,,,,,,,,,,,383.504,-1048.01,1751.49,,,,,,,,,,,,,,
1719851573715821631,,,,,,,,,,,,,,,,,,,,,,,,,,,,,0.0640688,0.608441,0.38698,0.689885,,,,,,,,,,
1719851573715897172,,,,,,,,,,,,,,,,,,,,,,,,,,,,,,,,,239.872,,,,,,,,,
1719851573716095040,,,,,,,,,,,,,,,,,,,,,,,,,,,,,,,,,,-76.8856,4.46816,-2.60087,88.2941,104.118,54.3451,,,
1719851573717024736,,,,,,,,,,,,,,,,,,,,,,,,,,383.636,-1047.07,1751.7,,,,,,,,,,,,,,
1719851573717098600,,,,,,,,,,,,,,,,,,,,,,,,,,,,,0.064063,0.608443,0.386981,0.689883,,,,,,,,,,
1719851573717299479,,,,,,,,,,,,,,,,,,,,,,,,,,,,,,,,,,-76.8684,4.41337,-2.6104,88.2955,104.101,54.3558,,,
1719851573718056722,,,,,,,,,,,,,,,,,,,,,,,,,,383.636,-1047.07,1751.7,,,,,,,,,,,,,,
1719851573718206482,,,,,,,,,,,,,,,,,,,,,,,,,,,,,0.064063,0.608443,0.386981,0.689883,,,,,,,,,,
1719851573720375381,,,,,,,,,,,,,,,,,,,,,,,,,,383.764,-1046.14,1751.9,,,,,,,,,,,,,,
1719851573720446725,,,,,,,,,,,,,,,,,,,,,,,,,,,,,0.0640678,0.608458,0.386984,0.689868,,,,,,,,,,
1719851573720595617,,,,,,,,,,,,,,,,,,,,,,,,,,,,,,,,,239.872,,,,,,,,,
1719851573721694324,,,,,,,,,,,,,,,,,,,,,,,,,,,,,,,,,,-76.8515,4.35825,-2.61996,88.2948,104.084,54.3656,,,
1719851573726010566,,,,,,,,,,,,,,,,,,,,,,,,,,383.893,-1045.2,1752.11,,,,,,,,,,,,,,
1719851573726074661,,,,,,,,,,,,,,,,,,,,,,,,,,,,,0.0640611,0.608467,0.386988,0.689858,,,,,,,,,,
1719851573726257479,,,,,,,,,,,,,,,,,,,,,,,,,,,,,,,,,,-76.8344,4.30329,-2.6294,88.2948,104.068,54.376,,,
1719851573728538569,,,,,,,,,,,,,,,,,,,,,,,,,,384.021,-1044.26,1752.31,,,,,,,,,,,,,,
1719851573729646385,,,,,,,,,,,,,,,,,,,,,,,,,,,,,0.0640651,0.608467,0.386997,0.689852,,,,,,,,,,
1719851573729683868,,,,,,,,,,,,,,,,,,,,,,,,,,,,,,,,,239.872,,,,,,,,,
1719851573729882907,,,,,,,,,,,,,,,,,,,,,,,,,,,,,,,,,,-76.8174,4.24821,-2.639,88.2957,104.051,54.3852,,,
1719851573730624158,,,,,,,,,,,,,,,,,,,,,,,,,,384.021,-1044.26,1752.31,,,,,,,,,,,,,,
1719851573730675948,,,,,,,,,,,,,,,,,,,,,,,,,,,,,0.0640651,0.608467,0.386997,0.689852,,,,,,,,,,
1719851573730750157,,,,,,,,,,,,,,,,,,,,,,,,,,,,,,,,,239.872,,,,,,,,,
1719851573730995100,,,,,,,,,,,,,,,,,,,,,,,,,,,,,,,,,,-76.8174,4.24821,-2.639,88.2957,104.051,54.3852,,,
1719851573732067657,,,,,,,,,,,,,,,,,,,,,,,,,,384.021,-1044.26,1752.31,,,,,,,,,,,,,,
1719851573732119447,,,,,,,,,,,,,,,,,,,,,,,,,,,,,0.0640651,0.608467,0.386997,0.689852,,,,,,,,,,
1719851573732191820,,,,,,,,,,,,,,,,,,,,,,,,,,,,,,,,,239.872,,,,,,,,,
1719851573732422437,,,,,,,,,,,,,,,,,,,,,,,,,,,,,,,,,,-76.8174,4.24821,-2.639,88.2957,104.051,54.3852,,,
1719851573733339180,,,,,,,,,,,,,,,,,,,,,,,,,,384.15,-1043.32,1752.52,,,,,,,,,,,,,,
1719851573733399899,,,,,,,,,,,,,,,,,,,,,,,,,,,,,0.0640522,0.608483,0.386994,0.689841,,,,,,,,,,
1719851573733576350,,,,,,,,,,,,,,,,,,,,,,,,,,,,,,,,,,-76.8002,4.19333,-2.64848,88.2955,104.034,54.3969,,,
1719851573734958839,,,,,,,,,,,,,,,,,,,,,,,,,,384.15,-1043.32,1752.52,,,,,,,,,,,,,,
1719851573735025340,,,,,,,,,,,,,,,,,,,,,,,,,,,,,0.0640522,0.608483,0.386994,0.689841,,,,,,,,,,
1719851573735099383,,,,,,,,,,,,,,,,,,,,,,,,,,,,,,,,,239.872,,,,,,,,,
1719851573737580635,,,,,,,,,,,,,,,,,,,,,,,,,,384.286,-1042.38,1752.72,,,,,,,,,,,,,,
1719851573738666411,,,,,,,,,,,,,,,,,,,,,,,,,,,,,0.0640452,0.608491,0.387003,0.68983,,,,,,,,,,
1719851573738703203,,,,,,,,,,,,,,,,,,,,,,,,,,,,,,,,,239.872,,,,,,,,,
1719851573741400042,,,,,,,,,,,,,,,,,,,,,,,,,,384.411,-1041.45,1752.92,,,,,,,,,,,,,,
1719851573741451276,,,,,,,,,,,,,,,,,,,,,,,,,,,,,0.0640517,0.608498,0.387003,0.689823,,,,,,,,,,
1719851573741648498,,,,,,,,,,,,,,,,,,,,,,,,,,,,,,,,,,-76.7658,4.08358,-2.66757,88.2959,104.001,54.4168,,,
1719851573742476579,,,,,,,,,,,,,,,,,,,,,,,,,,384.411,-1041.45,1752.92,,,,,,,,,,,,,,
1719851573742524337,,,,,,,,,,,,,,,,,,,,,,,,,,,,,0.0640517,0.608498,0.387003,0.689823,,,,,,,,,,
1719851573742781677,,,,,,,,,,,,,,,,,,,,,,,,,,,,,,,,,,-76.7658,4.08358,-2.66757,88.2959,104.001,54.4168,,,
1719851573743527348,,,,,,,,,,,,,,,,,,,,,,,,,,384.411,-1041.45,1752.92,,,,,,,,,,,,,,
1719851573743984918,,,,,,,,,,,,,,,,,,,,,,,,,,,,,0.0640517,0.608498,0.387003,0.689823,,,,,,,,,,
1719851573744037001,,,,,,,,,,,,,,,,,,,,,,,,,,,,,,,,,239.872,,,,,,,,,
1719851573744221061,,,,,,,,,,,,,,,,,,,,,,,,,,,,,,,,,,-76.7658,4.08358,-2.66757,88.2959,104.001,54.4168,,,
1719851573747165215,,,,,,,,,,,,,,,,,,,,,,,,,,384.539,-1040.51,1753.12,,,,,,,,,,,,,,
1719851573747220599,,,,,,,,,,,,,,,,,,,,,,,,,,,,,0.0640397,0.608503,0.387008,0.689817,,,,,,,,,,
1719851573747415072,,,,,,,,,,,,,,,,,,,,,,,,,,,,,,,,,,-76.7486,4.02854,-2.67705,88.2964,103.985,54.4276,,,
1719851573750671417,,,,,,,,,,,,,,,,,,,,,,,,,,384.672,-1039.58,1753.33,,,,,,,,,,,,,,
1719851573750722771,,,,,,,,,,,,,,,,,,,,,,,,,,,,,0.0640397,0.608509,0.387018,0.689806,,,,,,,,,,
1719851573750904776,,,,,,,,,,,,,,,,,,,,,,,,,,,,,,,,,,-76.7312,3.97383,-2.68665,88.2964,103.968,54.4371,,,
1719851573753425955,,,,,,,,,,,,,,,,,,,,,,,,,,384.792,-1038.65,1753.53,,,,,,,,,,,,,,
1719851573753474783,,,,,,,,,,,,,,,,,,,,,,,,,,,,,0.064045,0.608517,0.387025,0.689795,,,,,,,,,,
1719851573753672562,,,,,,,,,,,,,,,,,,,,,,,,,,,,,,,,,,-76.7145,3.91933,-2.6963,88.2964,103.951,54.4465,,,
1719851573754541519,,,,,,,,,,,,,,,,,,,,,,,,,,384.792,-1038.65,1753.53,,,,,,,,,,,,,,
1719851573754593276,,,,,,,,,,,,,,,,,,,,,,,,,,,,,0.064045,0.608517,0.387025,0.689795,,,,,,,,,,
1719851573754787311,,,,,,,,,,,,,,,,,,,,,,,,,,,,,,,,,,-76.7145,3.91933,-2.6963,88.2964,103.951,54.4465,,,
1719851573755591390,,,,,,,,,,,,,,,,,,,,,,,,,,384.792,-1038.65,1753.53,,,,,,,,,,,,,,
1719851573756034872,,,,,,,,,,,,,,,,,,,,,,,,,,,,,0.064045,0.608517,0.387025,0.689795,,,,,,,,,,
1719851573756072211,,,,,,,,,,,,,,,,,,,,,,,,,,,,,,,,,239.872,,,,,,,,,
1719851573757144275,,,,,,,,,,,,,,,,,,,,,,,,,,384.921,-1037.71,1753.73,,,,,,,,,,,,,,
1719851573757193071,,,,,,,,,,,,,,,,,,,,,,,,,,,,,0.0640417,0.608527,0.387028,0.689785,,,,,,,,,,
1719851573757320985,,,,,,,,,,,,,,,,,,,,,,,,,,,,,,,,,239.872,,,,,,,,,
1719851573759634410,,,,,,,,,,,,,,,,,,,,,,,,,,384.921,-1037.71,1753.73,,,,,,,,,,,,,,
1719851573760849254,,,,,,,,,,,,,,,,,,,,,,,,,,,,,0.0640417,0.608527,0.387028,0.689785,,,,,,,,,,
1719851573760951722,,,,,,,,,,,,,,,,,,,,,,,,,,,,,,,,,239.872,,,,,,,,,
1719851573761171978,,,,,,,,,,,,,,,,,,,,,,,,,,,,,,,,,,-76.6973,3.86446,-2.70582,88.2964,103.935,54.4568,,,
1719851573763320032,,,,,,,,,,,,,,,,,,,,,,,,,,385.043,-1036.78,1753.92,,,,,,,,,,,,,,
1719851573763384986,,,,,,,,,,,,,,,,,,,,,,,,,,,,,0.064048,0.608534,0.387027,0.689779,,,,,,,,,,
1719851573764782488,,,,,,,,,,,,,,,,,,,,,,,,,,,,,,,,,,-76.6805,3.80983,-2.71518,88.2971,103.917,54.4666,,,
1719851573767130705,,,,,,,,,,,,,,,,,,,,,,,,,,385.167,-1035.85,1754.12,,,,,,,,,,,,,,
1719851573767182708,,,,,,,,,,,,,,,,,,,,,,,,,,,,,,,,,239.872,,,,,,,,,
1719851573768484867,,,,,,,,,,,,,,,,,,,,,,,,,,385.167,-1035.85,1754.12,,,,,,,,,,,,,,
1719851573768537624,,,,,,,,,,,,,,,,,,,,,,,,,,,,,0.064043,0.608545,0.387032,0.689766,,,,,,,,,,
1719851573768624953,,,,,,,,,,,,,,,,,,,,,,,,,,,,,,,,,239.872,,,,,,,,,
1719851573769441144,,,,,,,,,,,,,,,,,,,,,,,,,,,,,,,,,,-76.6634,3.75517,-2.72474,88.2967,103.901,54.4769,,,
1719851573770194109,,,,,,,,,,,,,,,,,,,,,,,,,,385.291,-1034.91,1754.32,,,,,,,,,,,,,,
1719851573770278570,,,,,,,,,,,,,,,,,,,,,,,,,,,,,0.0640406,0.608551,0.387034,0.68976,,,,,,,,,,
1719851573770351974,,,,,,,,,,,,,,,,,,,,,,,,,,,,,,,,,239.872,,,,,,,,,
1719851573772801380,,,,,,,,,,,,,,,,,,,,,,,,,,385.291,-1034.91,1754.32,,,,,,,,,,,,,,
1719851573772836709,,,,,,,,,,,,,,,,,,,,,,,,,,,,,0.0640406,0.608551,0.387034,0.68976,,,,,,,,,,
1719851573772920391,,,,,,,,,,,,,,,,,,,,,,,,,,,,,,,,,239.872,,,,,,,,,
1719851573773205346,,,,,,,,,,,,,,,,,,,,,,,,,,,,,,,,,,-76.6464,3.70038,-2.73443,88.2973,103.884,54.4874,,,
1719851573775376173,,,,,,,,,,,,,,,,,,,,,,,,,,385.412,-1033.98,1754.52,,,,,,,,,,,,,,
1719851573775426802,,,,,,,,,,,,,,,,,,,,,,,,,,,,,0.0640407,0.608559,0.387032,0.689755,,,,,,,,,,
1719851573775733129,,,,,,,,,,,,,,,,,,,,,,,,,,,,,,,,,,-76.6294,3.64538,-2.74387,88.298,103.867,54.4979,,,
1719851573777198519,,,,,,,,,,,,,,,,,,,,,,,,,,385.528,-1033.04,1754.71,,,,,,,,,,,,,,
1719851573777252805,,,,,,,,,,,,,,,,,,,,,,,,,,,,,0.0640374,0.608568,0.387038,0.689743,,,,,,,,,,
1719851573777454475,,,,,,,,,,,,,,,,,,,,,,,,,,,,,,,,,,-76.6126,3.59029,-2.75339,88.2978,103.851,54.5079,,,
1719851573778364358,,,,,,,,,,,,,,,,,,,,,,,,,,385.528,-1033.04,1754.71,,,,,,,,,,,,,,
1719851573778414821,,,,,,,,,,,,,,,,,,,,,,,,,,,,,0.0640374,0.608568,0.387038,0.689743,,,,,,,,,,
1719851573778609754,,,,,,,,,,,,,,,,,,,,,,,,,,,,,,,,,,-76.6126,3.59029,-2.75339,88.2978,103.851,54.5079,,,
1719851573779372485,,,,,,,,,,,,,,,,,,,,,,,,,,385.528,-1033.04,1754.71,,,,,,,,,,,,,,
1719851573779424542,,,,,,,,,,,,,,,,,,,,,,,,,,,,,0.0640374,0.608568,0.387038,0.689743,,,,,,,,,,
1719851573779624633,,,,,,,,,,,,,,,,,,,,,,,,,,,,,,,,,,-76.6126,3.59029,-2.75339,88.2978,103.851,54.5079,,,
1719851573780883364,,,,,,,,,,,,,,,,,,,,,,,,,,385.652,-1032.1,1754.91,,,,,,,,,,,,,,
1719851573780932139,,,,,,,,,,,,,,,,,,,,,,,,,,,,,0.0640454,0.608578,0.387038,0.689734,,,,,,,,,,
1719851573783307362,,,,,,,,,,,,,,,,,,,,,,,,,,385.652,-1032.1,1754.91,,,,,,,,,,,,,,
1719851573783341398,,,,,,,,,,,,,,,,,,,,,,,,,,,,,0.0640454,0.608578,0.387038,0.689734,,,,,,,,,,
1719851573784953852,,,,,,,,,,,,,,,,,,,,,,,,,,,,,,,,,239.872,,,,,,,,,
1719851573785115292,,,,,,,,,,,,,,,,,,,,,,,,,,,,,,,,,,-76.5955,3.5355,-2.76312,88.298,103.833,54.5179,,,
1719851573787209903,,,,,,,,,,,,,,,,,,,,,,,,,,385.777,-1031.16,1755.1,,,,,,,,,,,,,,
1719851573787257558,,,,,,,,,,,,,,,,,,,,,,,,,,,,,0.0640441,0.608582,0.38705,0.689724,,,,,,,,,,
1719851573787444616,,,,,,,,,,,,,,,,,,,,,,,,,,,,,,,,,,-76.5782,3.4805,-2.77268,88.298,103.816,54.5272,,,
1719851573790766846,,,,,,,,,,,,,,,,,,,,,,,,,,385.892,-1030.22,1755.29,,,,,,,,,,,,,,
1719851573790817825,,,,,,,,,,,,,,,,,,,,,,,,,,,,,0.0640322,0.608593,0.387043,0.689719,,,,,,,,,,
1719851573790901382,,,,,,,,,,,,,,,,,,,,,,,,,,,,,,,,,239.872,,,,,,,,,
1719851573791807048,,,,,,,,,,,,,,,,,,,,,,,,,,385.892,-1030.22,1755.29,,,,,,,,,,,,,,
1719851573791843378,,,,,,,,,,,,,,,,,,,,,,,,,,,,,0.0640322,0.608593,0.387043,0.689719,,,,,,,,,,
1719851573791924734,,,,,,,,,,,,,,,,,,,,,,,,,,,,,,,,,239.872,,,,,,,,,
1719851573792553358,,,,,,,,,,,,,,,,,,,,,,,,,,,,,,,,,,-76.5614,3.42517,-2.78208,88.2988,103.8,54.539,,,
1719851573793936018,,,,,,,,,,,,,,,,,,,,,,,,,,386.017,-1029.27,1755.49,,,,,,,,,,,,,,
1719851573793971403,,,,,,,,,,,,,,,,,,,,,,,,,,,,,0.0640223,0.608601,0.387047,0.68971,,,,,,,,,,
1719851573794211564,,,,,,,,,,,,,,,,,,,,,,,,,,,,,,,,,,-76.5439,3.36962,-2.79172,88.2988,103.784,54.5499,,,
1719851573795001924,,,,,,,,,,,,,,,,,,,,,,,,,,386.017,-1029.27,1755.49,,,,,,,,,,,,,,
1719851573795042758,,,,,,,,,,,,,,,,,,,,,,,,,,,,,0.0640223,0.608601,0.387047,0.68971,,,,,,,,,,
1719851573795677614,,,,,,,,,,,,,,,,,,,,,,,,,,,,,,,,,239.872,,,,,,,,,
1719851573795848590,,,,,,,,,,,,,,,,,,,,,,,,,,,,,,,,,,-76.5439,3.36962,-2.79172,88.2988,103.784,54.5499,,,
1719851573797388278,,,,,,,,,,,,,,,,,,,,,,,,,,386.134,-1028.33,1755.68,,,,,,,,,,,,,,
1719851573797426686,,,,,,,,,,,,,,,,,,,,,,,,,,,,,0.0640381,0.608607,0.387056,0.689699,,,,,,,,,,
1719851573800814499,,,,,,,,,,,,,,,,,,,,,,,,,,386.134,-1028.33,1755.68,,,,,,,,,,,,,,
1719851573801039262,,,,,,,,,,,,,,,,,,,,,,,,,,,,,0.0640381,0.608607,0.387056,0.689699,,,,,,,,,,
1719851573801049585,,,,,,,,,,,,,,,,,,,,,,,,,,,,,,,,,239.872,,,,,,,,,
1719851573801359168,,,,,,,,,,,,,,,,,,,,,,,,,,,,,,,,,,-76.527,3.3145,-2.80129,88.2988,103.766,54.5581,,,
1719851573803487866,,,,,,,,,,,,,,,,,,,,,,,,,,,,,0.0640242,0.608615,0.387055,0.689693,,,,,,,,,,
1719851573803499972,,,,,,,,,,,,,,,,,,,,,,,,,,386.25,-1027.39,1755.87,,,,,,,,,,,,,,
1719851573803718035,,,,,,,,,,,,,,,,,,,,,,,,,,,,,,,,,,-76.5099,3.25916,-2.81102,88.2994,103.75,54.5699,,,
1719851573804813863,,,,,,,,,,,,,,,,,,,,,,,,,,,,,0.0640242,0.608615,0.387055,0.689693,,,,,,,,,,
1719851573804825520,,,,,,,,,,,,,,,,,,,,,,,,,,,,,,,,,239.872,,,,,,,,,
1719851573804832525,,,,,,,,,,,,,,,,,,,,,,,,,,386.25,-1027.39,1755.87,,,,,,,,,,,,,,
1719851573805159327,,,,,,,,,,,,,,,,,,,,,,,,,,,,,,,,,,-76.5099,3.25916,-2.81102,88.2994,103.75,54.5699,,,
1719851573806010138,,,,,,,,,,,,,,,,,,,,,,,,,,,,,0.0640267,0.608617,0.387066,0.689686,,,,,,,,,,
1719851573806022536,,,,,,,,,,,,,,,,,,,,,,,,,,,,,,,,,239.872,,,,,,,,,
1719851573806029337,,,,,,,,,,,,,,,,,,,,,,,,,,386.371,-1026.44,1756.07,,,,,,,,,,,,,,
1719851573809525443,,,,,,,,,,,,,,,,,,,,,,,,,,,,,0.0640267,0.608617,0.387066,0.689686,,,,,,,,,,
1719851573809542496,,,,,,,,,,,,,,,,,,,,,,,,,,,,,,,,,239.872,,,,,,,,,
1719851573809551260,,,,,,,,,,,,,,,,,,,,,,,,,,386.371,-1026.44,1756.07,,,,,,,,,,,,,,
1719851573809992898,,,,,,,,,,,,,,,,,,,,,,,,,,,,,,,,,,-76.4926,3.20387,-2.82083,88.2999,103.733,54.5794,,,
1719851573815284876,,,,,,,,,,,,,,,,,,,,,,,,,,,,,0.0640215,0.60863,0.387069,0.689672,,,,,,,,,,
1719851573815298471,,,,,,,,,,,,,,,,,,,,,,,,,,386.484,-1025.5,1756.26,,,,,,,,,,,,,,
1719851573818134887,,,,,,,,,,,,,,,,,,,,,,,,,,386.712,-1023.62,1756.64,,,,,,,,,,,,,,
1719851573818665166,,,,,,,,,,,,,,,,,,,,,,,,,,,,,,,,,239.872,,,,,,,,,
1719851573818839351,,,,,,,,,,,,,,,,,,,,,,,,,,,,,,,,,,-76.4419,3.03816,-2.84981,88.2992,103.683,54.6091,,,
1719851573819628780,,,,,,,,,,,,,,,,,,,,,,,,,,386.712,-1023.62,1756.64,,,,,,,,,,,,,,
1719851573819731589,,,,,,,,,,,,,,,,,,,,,,,,,,,,,0.0640282,0.608645,0.387082,0.689651,,,,,,,,,,
1719851573821173420,,,,,,,,,,,,,,,,,,,,,,,,,,386.712,-1023.62,1756.64,,,,,,,,,,,,,,
1719851573821203022,,,,,,,,,,,,,,,,,,,,,,,,,,,,,0.0640334,0.60865,0.38708,0.689648,,,,,,,,,,
1719851573821434972,,,,,,,,,,,,,,,,,,,,,,,,,,,,,,,,,,-76.4419,3.03816,-2.84981,88.2992,103.683,54.6091,,,
1719851573822460202,,,,,,,,,,,,,,,,,,,,,,,,,,386.824,-1022.67,1756.83,,,,,,,,,,,,,,
1719851573823527743,,,,,,,,,,,,,,,,,,,,,,,,,,386.824,-1022.67,1756.83,,,,,,,,,,,,,,
1719851573823597056,,,,,,,,,,,,,,,,,,,,,,,,,,,,,0.0640334,0.60865,0.38708,0.689648,,,,,,,,,,
1719851573823772858,,,,,,,,,,,,,,,,,,,,,,,,,,,,,,,,,,-76.4249,2.98262,-2.85942,88.3003,103.666,54.6194,,,
1719851573825734009,,,,,,,,,,,,,,,,,,,,,,,,,,386.936,-1021.73,1757.01,,,,,,,,,,,,,,
1719851573825765007,,,,,,,,,,,,,,,,,,,,,,,,,,,,,0.0640301,0.608658,0.387082,0.68964,,,,,,,,,,
1719851573825915394,,,,,,,,,,,,,,,,,,,,,,,,,,,,,,,,,,-76.408,2.92724,-2.86903,88.3006,103.649,54.6298,,,
1719851573828607365,,,,,,,,,,,,,,,,,,,,,,,,,,386.936,-1021.73,1757.01,,,,,,,,,,,,,,
1719851573828666818,,,,,,,,,,,,,,,,,,,,,,,,,,,,,0.0640301,0.608658,0.387082,0.68964,,,,,,,,,,
1719851573828820158,,,,,,,,,,,,,,,,,,,,,,,,,,,,,,,,,,-76.408,2.92724,-2.86903,88.3006,103.649,54.6298,,,
1719851573829820252,,,,,,,,,,,,,,,,,,,,,,,,,,387.052,-1020.79,1757.2,,,,,,,,,,,,,,
1719851573829846676,,,,,,,,,,,,,,,,,,,,,,,,,,,,,0.0640315,0.608663,0.38709,0.689631,,,,,,,,,,
1719851573829917814,,,,,,,,,,,,,,,,,,,,,,,,,,,,,,,,,239.872,,,,,,,,,
1719851573830074464,,,,,,,,,,,,,,,,,,,,,,,,,,,,,,,,,,-76.3908,2.87224,-2.87892,88.3008,103.633,54.6397,,,
1719851573830901745,,,,,,,,,,,,,,,,,,,,,,,,,,387.052,-1020.79,1757.2,,,,,,,,,,,,,,
1719851573831008370,,,,,,,,,,,,,,,,,,,,,,,,,,,,,0.0640315,0.608663,0.38709,0.689631,,,,,,,,,,
1719851573834199860,,,,,,,,,,,,,,,,,,,,,,,,,,,,,0.0640312,0.608669,0.387093,0.689624,,,,,,,,,,
1719851573834216030,,,,,,,,,,,,,,,,,,,,,,,,,,387.166,-1019.84,1757.39,,,,,,,,,,,,,,
1719851573834268843,,,,,,,,,,,,,,,,,,,,,,,,,,,,,,,,,239.872,,,,,,,,,
1719851573835985969,,,,,,,,,,,,,,,,,,,,,,,,,,387.166,-1019.84,1757.39,,,,,,,,,,,,,,
1719851573836086358,,,,,,,,,,,,,,,,,,,,,,,,,,,,,0.0640312,0.608669,0.387093,0.689624,,,,,,,,,,
1719851573836339715,,,,,,,,,,,,,,,,,,,,,,,,,,,,,,,,,,-76.3737,2.81703,-2.88865,88.3012,103.616,54.6499,,,
1719851573838495087,,,,,,,,,,,,,,,,,,,,,,,,,,387.276,-1018.91,1757.57,,,,,,,,,,,,,,
1719851573838656034,,,,,,,,,,,,,,,,,,,,,,,,,,,,,0.0640359,0.60868,0.387093,0.689614,,,,,,,,,,
1719851573838739877,,,,,,,,,,,,,,,,,,,,,,,,,,,,,,,,,239.872,,,,,,,,,
1719851573839662077,,,,,,,,,,,,,,,,,,,,,,,,,,387.276,-1018.91,1757.57,,,,,,,,,,,,,,
1719851573839749580,,,,,,,,,,,,,,,,,,,,,,,,,,,,,0.0640359,0.60868,0.387093,0.689614,,,,,,,,,,
1719851573839995089,,,,,,,,,,,,,,,,,,,,,,,,,,,,,,,,,,-76.3569,2.76178,-2.89813,88.3012,103.598,54.6599,,,
1719851573841884629,,,,,,,,,,,,,,,,,,,,,,,,,,387.276,-1018.91,1757.57,,,,,,,,,,,,,,
1719851573841987616,,,,,,,,,,,,,,,,,,,,,,,,,,,,,0.0640314,0.608686,0.387102,0.689604,,,,,,,,,,
1719851573842264889,,,,,,,,,,,,,,,,,,,,,,,,,,,,,,,,,,-76.3569,2.76178,-2.89813,88.3012,103.598,54.6599,,,
1719851573842978223,,,,,,,,,,,,,,,,,,,,,,,,,,387.395,-1017.96,1757.76,,,,,,,,,,,,,,
1719851573843080183,,,,,,,,,,,,,,,,,,,,,,,,,,,,,0.0640314,0.608686,0.387102,0.689604,,,,,,,,,,
1719851573844867606,,,,,,,,,,,,,,,,,,,,,,,,,,,,,,,,,,-76.3395,2.70678,-2.90786,88.3012,103.582,54.67,,,
1719851573847092039,,,,,,,,,,,,,,,,,,,,,,,,,,387.51,-1017.02,1757.94,,,,,,,,,,,,,,
1719851573847189577,,,,,,,,,,,,,,,,,,,,,,,,,,,,,0.0640294,0.608692,0.387106,0.689596,,,,,,,,,,
1719851573847451812,,,,,,,,,,,,,,,,,,,,,,,,,,,,,,,,,,-76.3222,2.65153,-2.91759,88.3015,103.565,54.6803,,,
1719851573850663444,,,,,,,,,,,,,,,,,,,,,,,,,,387.619,-1016.08,1758.13,,,,,,,,,,,,,,
1719851573850766009,,,,,,,,,,,,,,,,,,,,,,,,,,,,,0.0640225,0.608695,0.387105,0.689595,,,,,,,,,,
1719851573851025473,,,,,,,,,,,,,,,,,,,,,,,,,,,,,,,,,,-76.3053,2.59657,-2.92699,88.3027,103.549,54.6912,,,
1719851573853442560,,,,,,,,,,,,,,,,,,,,,,,,,,387.735,-1015.14,1758.3,,,,,,,,,,,,,,
1719851573853544376,,,,,,,,,,,,,,,,,,,,,,,,,,,,,0.0640289,0.608706,0.387117,0.689577,,,,,,,,,,
1719851573853800928,,,,,,,,,,,,,,,,,,,,,,,,,,,,,,,,,,-76.288,2.54153,-2.93664,88.3015,103.532,54.7,,,
1719851573854554717,,,,,,,,,,,,,,,,,,,,,,,,,,387.735,-1015.14,1758.3,,,,,,,,,,,,,,
1719851573854665789,,,,,,,,,,,,,,,,,,,,,,,,,,,,,0.0640289,0.608706,0.387117,0.689577,,,,,,,,,,
1719851573854771844,,,,,,,,,,,,,,,,,,,,,,,,,,,,,,,,,239.872,,,,,,,,,
1719851573855622350,,,,,,,,,,,,,,,,,,,,,,,,,,387.735,-1015.14,1758.3,,,,,,,,,,,,,,
1719851573855724945,,,,,,,,,,,,,,,,,,,,,,,,,,,,,0.0640289,0.608706,0.387117,0.689577,,,,,,,,,,
1719851573855832107,,,,,,,,,,,,,,,,,,,,,,,,,,,,,,,,,239.872,,,,,,,,,
1719851573858172307,,,,,,,,,,,,,,,,,,,,,,,,,,387.735,-1015.14,1758.3,,,,,,,,,,,,,,
1719851573858251147,,,,,,,,,,,,,,,,,,,,,,,,,,,,,0.0640195,0.608712,0.387112,0.689576,,,,,,,,,,
1719851573858530882,,,,,,,,,,,,,,,,,,,,,,,,,,,,,,,,,,-76.288,2.54153,-2.93664,88.3015,103.532,54.7,,,
1719851573860961521,,,,,,,,,,,,,,,,,,,,,,,,,,387.849,-1014.19,1758.48,,,,,,,,,,,,,,
1719851573861071141,,,,,,,,,,,,,,,,,,,,,,,,,,,,,0.0640195,0.608712,0.387112,0.689576,,,,,,,,,,
1719851573861184924,,,,,,,,,,,,,,,,,,,,,,,,,,,,,,,,,239.872,,,,,,,,,
1719851573863297723,,,,,,,,,,,,,,,,,,,,,,,,,,387.954,-1013.25,1758.66,,,,,,,,,,,,,,
1719851573863377850,,,,,,,,,,,,,,,,,,,,,,,,,,,,,0.0640135,0.608722,0.387111,0.689569,,,,,,,,,,
1719851573863492923,,,,,,,,,,,,,,,,,,,,,,,,,,,,,,,,,239.872,,,,,,,,,
1719851573865476279,,,,,,,,,,,,,,,,,,,,,,,,,,,,,,,,,,-76.2539,2.4309,-2.95547,88.3029,103.499,54.7222,,,
1719851573866391468,,,,,,,,,,,,,,,,,,,,,,,,,,388.072,-1012.31,1758.84,,,,,,,,,,,,,,
1719851573866515366,,,,,,,,,,,,,,,,,,,,,,,,,,,,,0.0640087,0.608729,0.387113,0.689562,,,,,,,,,,
1719851573866777108,,,,,,,,,,,,,,,,,,,,,,,,,,,,,,,,,,-76.2364,2.37603,-2.96495,88.3032,103.482,54.7328,,,
1719851573867455763,,,,,,,,,,,,,,,,,,,,,,,,,,388.072,-1012.31,1758.84,,,,,,,,,,,,,,
1719851573867571287,,,,,,,,,,,,,,,,,,,,,,,,,,,,,0.0640087,0.608729,0.387113,0.689562,,,,,,,,,,
1719851573867827822,,,,,,,,,,,,,,,,,,,,,,,,,,,,,,,,,,-76.2364,2.37603,-2.96495,88.3032,103.482,54.7328,,,
1719851573868512258,,,,,,,,,,,,,,,,,,,,,,,,,,388.072,-1012.31,1758.84,,,,,,,,,,,,,,
1719851573868957711,,,,,,,,,,,,,,,,,,,,,,,,,,,,,0.0640087,0.608729,0.387113,0.689562,,,,,,,,,,
1719851573869034670,,,,,,,,,,,,,,,,,,,,,,,,,,,,,,,,,239.872,,,,,,,,,
1719851573869306831,,,,,,,,,,,,,,,,,,,,,,,,,,,,,,,,,,-76.2364,2.37603,-2.96495,88.3032,103.482,54.7328,,,
1719851573873089616,,,,,,,,,,,,,,,,,,,,,,,,,,388.177,-1011.37,1759.02,,,,,,,,,,,,,,
1719851573873203470,,,,,,,,,,,,,,,,,,,,,,,,,,,,,0.0640072,0.608737,0.387119,0.689552,,,,,,,,,,
1719851573873314964,,,,,,,,,,,,,,,,,,,,,,,,,,,,,,,,,239.872,,,,,,,,,
1719851573875300422,,,,,,,,,,,,,,,,,,,,,,,,,,388.284,-1010.43,1759.19,,,,,,,,,,,,,,
1719851573875397620,,,,,,,,,,,,,,,,,,,,,,,,,,,,,0.0640103,0.608746,0.38712,0.689543,,,,,,,,,,
1719851573875506414,,,,,,,,,,,,,,,,,,,,,,,,,,,,,,,,,239.872,,,,,,,,,
1719851573875810863,,,,,,,,,,,,,,,,,,,,,,,,,,,,,,,,,,-76.2025,2.26544,-2.98408,88.3032,103.448,54.7527,,,
1719851573877475921,,,,,,,,,,,,,,,,,,,,,,,,,,388.284,-1010.43,1759.19,,,,,,,,,,,,,,
1719851573877597635,,,,,,,,,,,,,,,,,,,,,,,,,,,,,0.0640077,0.608754,0.387121,0.689535,,,,,,,,,,
1719851573877862101,,,,,,,,,,,,,,,,,,,,,,,,,,,,,,,,,,-76.2025,2.26544,-2.98408,88.3032,103.448,54.7527,,,
1719851573878622156,,,,,,,,,,,,,,,,,,,,,,,,,,388.39,-1009.49,1759.37,,,,,,,,,,,,,,
1719851573878721920,,,,,,,,,,,,,,,,,,,,,,,,,,,,,0.0640077,0.608754,0.387121,0.689535,,,,,,,,,,
1719851573878985215,,,,,,,,,,,,,,,,,,,,,,,,,,,,,,,,,,-76.1855,2.21036,-2.99364,88.3034,103.431,54.7632,,,
1719851573879704191,,,,,,,,,,,,,,,,,,,,,,,,,,388.39,-1009.49,1759.37,,,,,,,,,,,,,,
1719851573879817204,,,,,,,,,,,,,,,,,,,,,,,,,,,,,0.0640077,0.608754,0.387121,0.689535,,,,,,,,,,
1719851573880069142,,,,,,,,,,,,,,,,,,,,,,,,,,,,,,,,,,-76.1855,2.21036,-2.99364,88.3034,103.431,54.7632,,,
1719851573882897773,,,,,,,,,,,,,,,,,,,,,,,,,,388.39,-1009.49,1759.37,,,,,,,,,,,,,,
1719851573883000115,,,,,,,,,,,,,,,,,,,,,,,,,,,,,0.0640077,0.608754,0.387121,0.689535,,,,,,,,,,
1719851573883272503,,,,,,,,,,,,,,,,,,,,,,,,,,,,,,,,,,-76.1855,2.21036,-2.99364,88.3034,103.431,54.7632,,,
1719851573885795646,,,,,,,,,,,,,,,,,,,,,,,,,,388.601,-1007.6,1759.72,,,,,,,,,,,,,,
1719851573885889266,,,,,,,,,,,,,,,,,,,,,,,,,,,,,0.0640103,0.608767,0.38713,0.689518,,,,,,,,,,
1719851573887591516,,,,,,,,,,,,,,,,,,,,,,,,,,,,,,,,,239.872,,,,,,,,,
1719851573887835204,,,,,,,,,,,,,,,,,,,,,,,,,,,,,,,,,,-76.1515,2.09986,-3.0131,88.3038,103.398,54.7832,,,
1719851573890459556,,,,,,,,,,,,,,,,,,,,,,,,,,388.708,-1006.66,1759.89,,,,,,,,,,,,,,
1719851573890572540,,,,,,,,,,,,,,,,,,,,,,,,,,,,,0.0640108,0.608776,0.387129,0.689511,,,,,,,,,,
1719851573890861490,,,,,,,,,,,,,,,,,,,,,,,,,,,,,,,,,,-76.1515,2.09986,-3.0131,88.3038,103.398,54.7832,,,
1719851573893806349,,,,,,,,,,,,,,,,,,,,,,,,,,388.818,-1005.71,1760.07,,,,,,,,,,,,,,
1719851573893908081,,,,,,,,,,,,,,,,,,,,,,,,,,,,,0.0640049,0.608782,0.387135,0.689503,,,,,,,,,,
1719851573894219060,,,,,,,,,,,,,,,,,,,,,,,,,,,,,,,,,,-76.117,1.9889,-3.0324,88.3043,103.364,54.8042,,,
1719851573894966334,,,,,,,,,,,,,,,,,,,,,,,,,,388.818,-1005.71,1760.07,,,,,,,,,,,,,,
1719851573895079937,,,,,,,,,,,,,,,,,,,,,,,,,,,,,0.0640049,0.608782,0.387135,0.689503,,,,,,,,,,
1719851573895335240,,,,,,,,,,,,,,,,,,,,,,,,,,,,,,,,,,-76.117,1.9889,-3.0324,88.3043,103.364,54.8042,,,
1719851573895976697,,,,,,,,,,,,,,,,,,,,,,,,,,388.818,-1005.71,1760.07,,,,,,,,,,,,,,
1719851573896080218,,,,,,,,,,,,,,,,,,,,,,,,,,,,,0.0640049,0.608782,0.387135,0.689503,,,,,,,,,,
1719851573896191905,,,,,,,,,,,,,,,,,,,,,,,,,,,,,,,,,239.872,,,,,,,,,
1719851573898386072,,,,,,,,,,,,,,,,,,,,,,,,,,388.926,-1004.76,1760.24,,,,,,,,,,,,,,
1719851573898496645,,,,,,,,,,,,,,,,,,,,,,,,,,,,,0.0640164,0.608782,0.387142,0.689497,,,,,,,,,,
1719851573898682688,,,,,,,,,,,,,,,,,,,,,,,,,,,,,,,,,239.872,,,,,,,,,
1719851573900137205,,,,,,,,,,,,,,,,,,,,,,,,,,388.926,-1004.76,1760.24,,,,,,,,,,,,,,
1719851573900221494,,,,,,,,,,,,,,,,,,,,,,,,,,,,,0.0640164,0.608782,0.387142,0.689497,,,,,,,,,,
1719851573900511830,,,,,,,,,,,,,,,,,,,,,,,,,,,,,,,,,,-76.0997,1.93361,-3.04209,88.305,103.347,54.813,,,
1719851573903793690,,,,,,,,,,,,,,,,,,,,,,,,,,389.031,-1003.81,1760.42,,,,,,,,,,,,,,
1719851573903897177,,,,,,,,,,,,,,,,,,,,,,,,,,,,,0.0640121,0.608799,0.387145,0.689481,,,,,,,,,,
1719851573904160166,,,,,,,,,,,,,,,,,,,,,,,,,,,,,,,,,,-76.0825,1.87777,-3.0519,88.3038,103.329,54.8238,,,
1719851573905866815,,,,,,,,,,,,,,,,,,,,,,,,,,389.031,-1003.81,1760.42,,,,,,,,,,,,,,
1719851573906007566,,,,,,,,,,,,,,,,,,,,,,,,,,,,,0.0640121,0.608799,0.387145,0.689481,,,,,,,,,,
1719851573906168764,,,,,,,,,,,,,,,,,,,,,,,,,,,,,,,,,239.872,,,,,,,,,
1719851573906426423,,,,,,,,,,,,,,,,,,,,,,,,,,,,,,,,,,-76.0825,1.87777,-3.0519,88.3038,103.329,54.8238,,,
1719851573907236682,,,,,,,,,,,,,,,,,,,,,,,,,,389.14,-1002.86,1760.59,,,,,,,,,,,,,,
1719851573907374916,,,,,,,,,,,,,,,,,,,,,,,,,,,,,0.0640115,0.608799,0.387152,0.689477,,,,,,,,,,
